( pcb2gcode 1.1.0 )

G94     ( Inches per minute feed rate. )
G20     ( Units == INCHES.             )
G90     ( Absolute coordinates.        )
S30000  ( RPM spindle speed.           )
M3      ( Spindle on clockwise.        )

G64 P0.002 ( set maximum deviation from commanded toolpath )

G00 Z0.80000 ( retract )

G00 X0.02960 Y1.22130 ( rapid move to begin. )
G01 Z-0.00800 F6.00000 ( plunge. )
X0.02960 Y1.22130
X0.02960 Y1.22030
X0.03060 Y0.00630
X1.59860 Y0.00730
X1.59760 Y1.23630
X0.02960 Y1.23530
X0.02960 Y1.22230
G00 Z0.80000 ( retract )

G00 X0.05460 Y1.19130 ( rapid move to begin. )
G01 Z-0.00800 F6.00000 ( plunge. )
X0.05460 Y1.19130
X0.05460 Y1.19030
X0.05560 Y0.03130
X1.57360 Y0.03230
X1.57260 Y1.21230
X0.05460 Y1.21130
X0.05460 Y1.19230
G00 Z0.80000 ( retract )

G00 X0.87160 Y1.05130 ( rapid move to begin. )
G01 Z-0.00800 F6.00000 ( plunge. )
X0.87160 Y1.05130
X0.87060 Y1.05130
X0.87060 Y1.05030
X0.86960 Y1.05030
X0.86960 Y1.04930
X0.86860 Y1.04930
X0.86860 Y1.04830
X0.86760 Y1.04830
X0.86760 Y1.04730
X0.86660 Y1.04730
X0.86660 Y1.04630
X0.86560 Y1.04630
X0.86560 Y1.04530
X0.86460 Y1.04530
X0.86460 Y1.04430
X0.86360 Y1.04430
X0.86360 Y1.04330
X0.86260 Y1.04330
X0.86260 Y1.04230
X0.86160 Y1.04230
X0.86160 Y1.04130
X0.86060 Y1.04130
X0.86060 Y1.04030
X0.85960 Y1.04030
X0.85960 Y1.03930
X0.85860 Y1.03930
X0.85860 Y1.03830
X0.85760 Y1.03830
X0.85760 Y1.03730
X0.85660 Y1.03730
X0.85660 Y1.03630
X0.85560 Y1.03630
X0.85560 Y1.03530
X0.85460 Y1.03530
X0.85460 Y1.03430
X0.85360 Y1.03430
X0.85360 Y1.03330
X0.85260 Y1.03330
X0.85260 Y1.03230
X0.85160 Y1.03130
X0.85160 Y1.03030
X0.85060 Y1.03030
X0.85060 Y1.02930
X0.84960 Y1.02830
X0.84960 Y1.02730
X0.84860 Y1.02730
X0.84860 Y1.02630
X0.84760 Y1.02530
X0.84760 Y1.02430
X0.84660 Y1.02430
X0.84660 Y1.02330
X0.84560 Y1.02230
X0.84560 Y1.02130
X0.84460 Y1.02130
X0.84460 Y1.02030
X0.84360 Y1.01930
X0.84360 Y1.01830
X0.84260 Y1.01530
X0.84260 Y1.01430
X0.84160 Y1.01030
X0.84160 Y1.00930
X0.84060 Y1.00530
X0.84060 Y1.00430
X0.83960 Y0.96130
X0.83960 Y0.96030
X0.83860 Y0.95830
X0.83860 Y0.95730
X0.83760 Y0.95730
X0.83760 Y0.95630
X0.83660 Y0.95530
X0.83660 Y0.95430
X0.83560 Y0.95330
X0.83560 Y0.95230
X0.83460 Y0.95030
X0.83460 Y0.94930
X0.83360 Y0.94830
X0.83360 Y0.94730
X0.83260 Y0.94530
X0.83260 Y0.94430
X0.83160 Y0.94330
X0.83160 Y0.94230
X0.83060 Y0.94130
X0.83060 Y0.94030
X0.83160 Y0.88830
X0.83160 Y0.88730
X0.83260 Y0.88630
X0.83260 Y0.88530
X0.83360 Y0.88330
X0.83360 Y0.88230
X0.83460 Y0.88130
X0.83460 Y0.88030
X0.83560 Y0.87930
X0.83560 Y0.87830
X0.83660 Y0.87630
X0.83660 Y0.87530
X0.83760 Y0.87430
X0.83760 Y0.87330
X0.83860 Y0.87130
X0.83860 Y0.87030
X0.83960 Y0.87030
X0.83960 Y0.86930
X0.84060 Y0.86930
X0.84060 Y0.86830
X0.84160 Y0.86830
X0.84160 Y0.86730
X0.84260 Y0.86730
X0.84260 Y0.86630
X0.84360 Y0.86630
X0.84360 Y0.86530
X0.84460 Y0.86530
X0.84460 Y0.86430
X0.84560 Y0.86430
X0.84560 Y0.86330
X0.84660 Y0.86330
X0.84660 Y0.86230
X0.84760 Y0.86230
X0.84760 Y0.86130
X0.84860 Y0.86130
X0.84860 Y0.86030
X0.84960 Y0.86030
X0.84960 Y0.85930
X0.85060 Y0.85930
X0.85060 Y0.85830
X0.85160 Y0.85830
X0.85160 Y0.85730
X0.85260 Y0.85730
X0.85460 Y0.85630
X0.85560 Y0.85630
X0.85660 Y0.85530
X0.85760 Y0.85530
X0.85860 Y0.85430
X0.85960 Y0.85430
X0.86160 Y0.85330
X0.86260 Y0.85330
X0.86360 Y0.85230
X0.86460 Y0.85230
X0.86660 Y0.85130
X0.86760 Y0.85130
X0.86860 Y0.85030
X0.86960 Y0.85030
X0.89160 Y0.85130
X0.89260 Y0.85130
X0.89360 Y0.85230
X0.89460 Y0.85230
X0.89560 Y0.85330
X0.89660 Y0.85330
X0.89860 Y0.85430
X0.89960 Y0.85430
X0.90060 Y0.85530
X0.90160 Y0.85530
X0.90360 Y0.85630
X0.90460 Y0.85630
X0.90560 Y0.85730
X0.90660 Y0.85730
X0.90760 Y0.85830
X0.90860 Y0.85830
X0.90860 Y0.85930
X0.90960 Y0.85930
X0.90960 Y0.86030
X0.91060 Y0.86030
X0.91060 Y0.86130
X0.91160 Y0.86130
X0.91160 Y0.86230
X0.91260 Y0.86230
X0.91260 Y0.86330
X0.91360 Y0.86330
X0.91360 Y0.86430
X0.91460 Y0.86430
X0.91460 Y0.86530
X0.91560 Y0.86530
X0.91560 Y0.86630
X0.91660 Y0.86630
X0.91660 Y0.86730
X0.91760 Y0.86730
X0.91760 Y0.86830
X0.91860 Y0.86830
X0.91860 Y0.86930
X0.91960 Y0.86930
X0.91960 Y0.87030
X0.92060 Y0.87030
X0.92060 Y0.87130
X0.92160 Y0.87130
X0.92160 Y0.87230
X0.92260 Y0.87230
X0.92260 Y0.87330
X0.92360 Y0.87530
X0.92360 Y0.87630
X0.92460 Y0.87730
X0.92460 Y0.87830
X0.92560 Y0.87930
X0.92560 Y0.88030
X0.92660 Y0.88030
X0.92660 Y0.88130
X0.92760 Y0.88130
X0.93060 Y0.88230
X0.92960 Y0.94930
X0.92960 Y0.95030
X0.93060 Y0.95130
X0.93060 Y0.95230
X0.92960 Y0.95630
X0.92960 Y0.95730
X0.93060 Y0.95830
X0.93060 Y0.95930
X0.92960 Y0.96230
X0.92960 Y0.96330
X0.93060 Y0.96630
X0.93060 Y0.96730
X0.93160 Y0.97530
X0.93160 Y0.97630
X0.93260 Y0.97630
X0.93260 Y0.97730
X0.93360 Y0.97730
X0.93360 Y0.97830
X0.93460 Y0.97830
X0.93460 Y0.97930
X0.93560 Y0.97930
X0.93560 Y0.98030
X0.93660 Y0.98030
X0.93660 Y0.98130
X0.93760 Y0.98130
X0.93760 Y0.98230
X0.93860 Y0.98230
X0.93960 Y0.98330
X0.94060 Y0.98330
X0.94160 Y0.98430
X0.94260 Y0.98430
X0.94260 Y0.98530
X0.94360 Y0.98530
X0.94460 Y0.98630
X0.94560 Y0.98630
X0.94960 Y0.98730
X0.95060 Y0.98730
X1.00460 Y0.98630
X1.00560 Y0.98630
X1.00760 Y0.98530
X1.00860 Y0.98530
X1.00860 Y0.98430
X1.00960 Y0.98430
X1.01160 Y0.98330
X1.01260 Y0.98330
X1.01260 Y0.98230
X1.01360 Y0.98230
X1.01560 Y0.98130
X1.01660 Y0.98130
X1.01660 Y0.98030
X1.01760 Y0.98030
X1.01760 Y0.97930
X1.01860 Y0.97930
X1.01860 Y0.97830
X1.01960 Y0.97830
X1.02060 Y0.97730
X1.02160 Y0.97730
X1.02260 Y0.97630
X1.02360 Y0.97630
X1.02360 Y0.97530
X1.02460 Y0.97530
X1.02460 Y0.97430
X1.02560 Y0.97430
X1.02560 Y0.97330
X1.02660 Y0.97330
X1.02660 Y0.97230
X1.02760 Y0.97230
X1.02760 Y0.97130
X1.02860 Y0.97030
X1.02860 Y0.96930
X1.02960 Y0.96930
X1.02960 Y0.96830
X1.03060 Y0.88230
X1.03260 Y0.88130
X1.03360 Y0.88130
X1.03360 Y0.88030
X1.03460 Y0.88030
X1.03460 Y0.87930
X1.03560 Y0.87930
X1.03560 Y0.87830
X1.03660 Y0.87630
X1.03660 Y0.87530
X1.03760 Y0.87430
X1.03760 Y0.87330
X1.03860 Y0.87130
X1.03860 Y0.87030
X1.03960 Y0.87030
X1.03960 Y0.86930
X1.04060 Y0.86930
X1.04060 Y0.86830
X1.04160 Y0.86830
X1.04160 Y0.86730
X1.04260 Y0.86730
X1.04260 Y0.86630
X1.04360 Y0.86630
X1.04360 Y0.86530
X1.04460 Y0.86530
X1.04460 Y0.86430
X1.04560 Y0.86430
X1.04560 Y0.86330
X1.04660 Y0.86330
X1.04660 Y0.86230
X1.04760 Y0.86230
X1.04760 Y0.86130
X1.04860 Y0.86130
X1.04860 Y0.86030
X1.04960 Y0.86030
X1.04960 Y0.85930
X1.05060 Y0.85930
X1.05060 Y0.85830
X1.05160 Y0.85830
X1.05160 Y0.85730
X1.05260 Y0.85730
X1.05460 Y0.85630
X1.05560 Y0.85630
X1.05660 Y0.85530
X1.05760 Y0.85530
X1.05860 Y0.85430
X1.05960 Y0.85430
X1.06160 Y0.85330
X1.06260 Y0.85330
X1.06360 Y0.85230
X1.06460 Y0.85230
X1.06660 Y0.85130
X1.06760 Y0.85130
X1.06860 Y0.85030
X1.06960 Y0.85030
X1.09160 Y0.85130
X1.09260 Y0.85130
X1.09360 Y0.85230
X1.09460 Y0.85230
X1.09560 Y0.85330
X1.09660 Y0.85330
X1.09860 Y0.85430
X1.09960 Y0.85430
X1.10060 Y0.85530
X1.10160 Y0.85530
X1.10360 Y0.85630
X1.10460 Y0.85630
X1.10560 Y0.85730
X1.10660 Y0.85730
X1.10760 Y0.85830
X1.10860 Y0.85830
X1.10860 Y0.85930
X1.10960 Y0.85930
X1.10960 Y0.86030
X1.11060 Y0.86030
X1.11060 Y0.86130
X1.11160 Y0.86130
X1.11160 Y0.86230
X1.11260 Y0.86230
X1.11260 Y0.86330
X1.11360 Y0.86330
X1.11360 Y0.86430
X1.11460 Y0.86430
X1.11460 Y0.86530
X1.11560 Y0.86530
X1.11560 Y0.86630
X1.11660 Y0.86630
X1.11660 Y0.86730
X1.11760 Y0.86730
X1.11760 Y0.86830
X1.11860 Y0.86830
X1.11860 Y0.86930
X1.11960 Y0.86930
X1.11960 Y0.87030
X1.12060 Y0.87030
X1.12060 Y0.87130
X1.12160 Y0.87130
X1.12160 Y0.87230
X1.12260 Y0.87230
X1.12260 Y0.87330
X1.12360 Y0.87530
X1.12360 Y0.87630
X1.12460 Y0.87730
X1.12460 Y0.87830
X1.12560 Y0.87930
X1.12560 Y0.88030
X1.12660 Y0.88030
X1.12660 Y0.88130
X1.12560 Y0.94830
X1.12560 Y0.94930
X1.12460 Y0.95030
X1.12460 Y0.95130
X1.12360 Y0.95230
X1.12360 Y0.95330
X1.12260 Y0.95430
X1.12260 Y0.95530
X1.12160 Y0.95630
X1.12160 Y0.95730
X1.12060 Y0.95830
X1.12060 Y0.95930
X1.11960 Y0.96030
X1.11960 Y0.96130
X1.11860 Y0.99330
X1.11860 Y0.99430
X1.11760 Y0.99830
X1.11760 Y0.99930
X1.11660 Y1.00330
X1.11660 Y1.00430
X1.11560 Y1.00930
X1.11560 Y1.01030
X1.11460 Y1.01030
X1.11460 Y1.01130
X1.11360 Y1.01230
X1.11360 Y1.01330
X1.11260 Y1.01330
X1.11260 Y1.01430
X1.11160 Y1.01530
X1.11160 Y1.01630
X1.11060 Y1.01630
X1.11060 Y1.01730
X1.10960 Y1.01830
X1.10960 Y1.01930
X1.10860 Y1.01930
X1.10860 Y1.02030
X1.10760 Y1.02130
X1.10760 Y1.02230
X1.10660 Y1.02230
X1.10660 Y1.02330
X1.10560 Y1.02330
X1.10560 Y1.02430
X1.10460 Y1.02430
X1.10460 Y1.02530
X1.10360 Y1.02530
X1.10360 Y1.02630
X1.10260 Y1.02630
X1.10260 Y1.02730
X1.10160 Y1.02730
X1.10160 Y1.02830
X1.10060 Y1.02830
X1.10060 Y1.02930
X1.09960 Y1.02930
X1.09960 Y1.03030
X1.09860 Y1.03030
X1.09860 Y1.03130
X1.09760 Y1.03130
X1.09760 Y1.03230
X1.09660 Y1.03230
X1.09660 Y1.03330
X1.09560 Y1.03330
X1.09560 Y1.03430
X1.09460 Y1.03430
X1.09460 Y1.03530
X1.09360 Y1.03530
X1.09360 Y1.03630
X1.09260 Y1.03630
X1.09260 Y1.03730
X1.09160 Y1.03730
X1.09160 Y1.03830
X1.09060 Y1.03830
X1.09060 Y1.03930
X1.08960 Y1.03930
X1.08960 Y1.04030
X1.08860 Y1.04030
X1.08860 Y1.04130
X1.08760 Y1.04130
X1.08760 Y1.04230
X1.08660 Y1.04230
X1.08660 Y1.04330
X1.08560 Y1.04330
X1.08560 Y1.04430
X1.08460 Y1.04430
X1.08460 Y1.04530
X1.08360 Y1.04530
X1.08360 Y1.04630
X1.08260 Y1.04630
X1.08260 Y1.04730
X1.08160 Y1.04730
X1.08160 Y1.04830
X1.08060 Y1.04830
X1.08060 Y1.04930
X1.07960 Y1.04930
X1.07960 Y1.05030
X1.07860 Y1.05030
X1.07860 Y1.05130
X1.07760 Y1.05130
X1.07760 Y1.05230
X1.07660 Y1.05230
X1.07660 Y1.05330
X1.07560 Y1.05330
X1.07560 Y1.05430
X1.07460 Y1.05430
X1.07460 Y1.05530
X1.07360 Y1.05530
X1.07360 Y1.05630
X1.07260 Y1.05630
X1.07260 Y1.05730
X1.07160 Y1.05730
X1.07160 Y1.05830
X1.07060 Y1.05830
X1.07060 Y1.05930
X1.06960 Y1.05930
X1.06960 Y1.06030
X1.06860 Y1.06030
X1.06860 Y1.06130
X1.06760 Y1.06130
X1.06760 Y1.06230
X1.06660 Y1.06230
X1.06660 Y1.06330
X1.06560 Y1.06330
X1.06560 Y1.06430
X1.06460 Y1.06430
X1.06360 Y1.06530
X1.06260 Y1.06530
X1.06260 Y1.06630
X1.06160 Y1.06630
X1.06060 Y1.06730
X1.05960 Y1.06730
X1.05960 Y1.06830
X1.05860 Y1.06830
X1.05760 Y1.06930
X1.05660 Y1.06930
X1.05660 Y1.07030
X1.05560 Y1.07030
X1.05460 Y1.07130
X1.05360 Y1.07130
X1.04960 Y1.07230
X1.04860 Y1.07230
X1.04460 Y1.07330
X1.04360 Y1.07330
X1.03960 Y1.07430
X1.03860 Y1.07430
X0.91060 Y1.07330
X0.90960 Y1.07330
X0.90560 Y1.07230
X0.90460 Y1.07230
X0.90060 Y1.07130
X0.89960 Y1.07130
X0.89560 Y1.07030
X0.89460 Y1.07030
X0.89360 Y1.06930
X0.89260 Y1.06930
X0.89260 Y1.06830
X0.89160 Y1.06830
X0.89060 Y1.06730
X0.88960 Y1.06730
X0.88960 Y1.06630
X0.88860 Y1.06630
X0.88760 Y1.06530
X0.88660 Y1.06530
X0.88660 Y1.06430
X0.88560 Y1.06430
X0.88460 Y1.06330
X0.88360 Y1.06330
X0.88360 Y1.06230
X0.88260 Y1.06230
X0.88160 Y1.06130
X0.88060 Y1.06130
X0.88060 Y1.06030
X0.87960 Y1.06030
X0.87960 Y1.05930
X0.87860 Y1.05930
X0.87860 Y1.05830
X0.87760 Y1.05830
X0.87760 Y1.05730
X0.87660 Y1.05730
X0.87660 Y1.05630
X0.87560 Y1.05630
X0.87560 Y1.05530
X0.87460 Y1.05530
X0.87460 Y1.05430
X0.87360 Y1.05430
X0.87360 Y1.05330
X0.87260 Y1.05330
X0.87260 Y1.05230
X0.87160 Y1.05230
G00 Z0.80000 ( retract )

G00 X1.13560 Y0.95130 ( rapid move to begin. )
G01 Z-0.00800 F6.00000 ( plunge. )
X1.13560 Y0.95130
X1.13560 Y0.95030
X1.13660 Y0.87630
X1.13660 Y0.87530
X1.13760 Y0.87430
X1.13760 Y0.87330
X1.13860 Y0.87130
X1.13860 Y0.87030
X1.13960 Y0.87030
X1.13960 Y0.86930
X1.14060 Y0.86930
X1.14060 Y0.86830
X1.14160 Y0.86830
X1.14160 Y0.86730
X1.14260 Y0.86730
X1.14260 Y0.86630
X1.14360 Y0.86630
X1.14360 Y0.86530
X1.14460 Y0.86530
X1.14460 Y0.86430
X1.14560 Y0.86430
X1.14560 Y0.86330
X1.14660 Y0.86330
X1.14660 Y0.86230
X1.14760 Y0.86230
X1.14760 Y0.86130
X1.14860 Y0.86130
X1.14860 Y0.86030
X1.14960 Y0.86030
X1.14960 Y0.85930
X1.15060 Y0.85930
X1.15060 Y0.85830
X1.15160 Y0.85830
X1.15160 Y0.85730
X1.15260 Y0.85730
X1.15460 Y0.85630
X1.15560 Y0.85630
X1.15660 Y0.85530
X1.15760 Y0.85530
X1.15860 Y0.85430
X1.15960 Y0.85430
X1.16160 Y0.85330
X1.16260 Y0.85330
X1.16360 Y0.85230
X1.16460 Y0.85230
X1.16660 Y0.85130
X1.16760 Y0.85130
X1.16860 Y0.85030
X1.16960 Y0.85030
X1.18860 Y0.84930
X1.18960 Y0.84930
X1.19060 Y0.84830
X1.19160 Y0.84830
X1.19160 Y0.84730
X1.19260 Y0.84730
X1.19260 Y0.84630
X1.19360 Y0.84630
X1.19360 Y0.84530
X1.19460 Y0.84530
X1.19460 Y0.84430
X1.19560 Y0.84430
X1.19560 Y0.84330
X1.19660 Y0.84330
X1.19660 Y0.84230
X1.19760 Y0.84230
X1.19760 Y0.84130
X1.19860 Y0.84130
X1.19860 Y0.84030
X1.19960 Y0.84030
X1.19960 Y0.83930
X1.20060 Y0.83930
X1.20060 Y0.83830
X1.20160 Y0.83830
X1.20160 Y0.83730
X1.20260 Y0.83730
X1.20260 Y0.83630
X1.20360 Y0.83630
X1.20360 Y0.83530
X1.20460 Y0.83530
X1.20460 Y0.83430
X1.20560 Y0.83430
X1.20560 Y0.83330
X1.20660 Y0.83330
X1.20660 Y0.83230
X1.20760 Y0.83230
X1.20760 Y0.83130
X1.20860 Y0.83130
X1.20860 Y0.83030
X1.20960 Y0.83030
X1.20960 Y0.82930
X1.21060 Y0.82930
X1.21060 Y0.82830
X1.21160 Y0.82830
X1.21160 Y0.82730
X1.21260 Y0.82730
X1.21260 Y0.82630
X1.21360 Y0.82630
X1.21360 Y0.82530
X1.21460 Y0.82530
X1.21460 Y0.82430
X1.21560 Y0.82430
X1.21560 Y0.82330
X1.21660 Y0.82330
X1.21660 Y0.82230
X1.21760 Y0.82230
X1.21760 Y0.82130
X1.21860 Y0.82130
X1.21860 Y0.82030
X1.21960 Y0.82030
X1.21960 Y0.81930
X1.22060 Y0.81930
X1.22060 Y0.81830
X1.22160 Y0.81830
X1.22160 Y0.81730
X1.22260 Y0.81730
X1.22260 Y0.81630
X1.22360 Y0.81630
X1.22360 Y0.81530
X1.22460 Y0.81530
X1.22460 Y0.81430
X1.22560 Y0.81430
X1.22560 Y0.81330
X1.22660 Y0.81330
X1.22660 Y0.81230
X1.22760 Y0.81230
X1.22760 Y0.81130
X1.22860 Y0.81130
X1.22860 Y0.81030
X1.22960 Y0.81030
X1.22960 Y0.80930
X1.23060 Y0.80930
X1.23060 Y0.80830
X1.23160 Y0.80830
X1.23160 Y0.80730
X1.23260 Y0.80730
X1.23260 Y0.80630
X1.23360 Y0.80630
X1.23360 Y0.80530
X1.23460 Y0.80530
X1.23460 Y0.80430
X1.23560 Y0.80430
X1.23560 Y0.80330
X1.23660 Y0.80330
X1.23660 Y0.80230
X1.23760 Y0.80230
X1.23760 Y0.80130
X1.23860 Y0.80130
X1.23860 Y0.80030
X1.23960 Y0.80030
X1.23960 Y0.79930
X1.24060 Y0.79930
X1.24060 Y0.79830
X1.24160 Y0.79830
X1.24160 Y0.79730
X1.24260 Y0.79730
X1.24260 Y0.79630
X1.24360 Y0.79630
X1.24360 Y0.79530
X1.24460 Y0.79530
X1.24460 Y0.79430
X1.24560 Y0.79430
X1.24560 Y0.79330
X1.24660 Y0.79330
X1.24660 Y0.79230
X1.24760 Y0.79230
X1.24760 Y0.79130
X1.24860 Y0.79130
X1.24860 Y0.79030
X1.24960 Y0.79030
X1.24960 Y0.78930
X1.25060 Y0.78930
X1.25060 Y0.78830
X1.25160 Y0.78830
X1.25160 Y0.78730
X1.25260 Y0.78730
X1.25260 Y0.78630
X1.25360 Y0.78630
X1.25360 Y0.78530
X1.25460 Y0.78530
X1.25460 Y0.78430
X1.25560 Y0.78430
X1.25560 Y0.78330
X1.25660 Y0.78330
X1.25660 Y0.78230
X1.25760 Y0.78230
X1.25760 Y0.78130
X1.25860 Y0.78130
X1.25860 Y0.78030
X1.25960 Y0.78030
X1.25960 Y0.77930
X1.26060 Y0.77930
X1.26060 Y0.77830
X1.26160 Y0.77830
X1.26160 Y0.77730
X1.26260 Y0.77730
X1.26260 Y0.77630
X1.26360 Y0.77630
X1.26360 Y0.77530
X1.26460 Y0.77530
X1.26460 Y0.77430
X1.26560 Y0.77430
X1.26560 Y0.77330
X1.26660 Y0.77330
X1.26660 Y0.77230
X1.26760 Y0.77230
X1.26760 Y0.77130
X1.26860 Y0.77130
X1.26860 Y0.77030
X1.26960 Y0.77030
X1.26960 Y0.76930
X1.27060 Y0.76930
X1.27060 Y0.76830
X1.27160 Y0.76830
X1.27160 Y0.76730
X1.27260 Y0.76630
X1.27260 Y0.76530
X1.27160 Y0.15530
X1.27160 Y0.15430
X1.27060 Y0.15430
X1.27060 Y0.15330
X1.26960 Y0.15330
X1.26960 Y0.15230
X1.26860 Y0.15230
X1.26860 Y0.15130
X1.26760 Y0.15130
X1.26760 Y0.15030
X1.26660 Y0.15030
X1.26660 Y0.14930
X1.26560 Y0.14930
X1.26560 Y0.14830
X1.26460 Y0.14830
X1.26460 Y0.14730
X1.26360 Y0.14730
X1.26360 Y0.14630
X1.26260 Y0.14630
X1.26260 Y0.14530
X1.26160 Y0.14530
X1.26160 Y0.14430
X1.26060 Y0.14430
X1.26060 Y0.14330
X1.25960 Y0.14330
X1.25960 Y0.14230
X1.25860 Y0.14230
X1.25860 Y0.14130
X1.25760 Y0.14130
X1.25760 Y0.14030
X1.25660 Y0.14030
X1.25560 Y0.13930
X1.25460 Y0.13930
X1.13260 Y0.14030
X1.13160 Y0.14030
X1.13060 Y0.14130
X1.12960 Y0.14130
X1.12960 Y0.14230
X1.12860 Y0.14230
X1.12860 Y0.14330
X1.12760 Y0.14330
X1.12760 Y0.14430
X1.12660 Y0.14430
X1.12660 Y0.14530
X1.12560 Y0.14530
X1.12560 Y0.14630
X1.12460 Y0.14630
X1.12460 Y0.14730
X1.12360 Y0.14730
X1.12360 Y0.14830
X1.12260 Y0.14830
X1.12260 Y0.14930
X1.12160 Y0.14930
X1.12160 Y0.15030
X1.12060 Y0.15030
X1.12060 Y0.15130
X1.11960 Y0.15130
X1.11960 Y0.15230
X1.12060 Y0.18930
X1.12060 Y0.19030
X1.12160 Y0.19230
X1.12160 Y0.19330
X1.12260 Y0.19430
X1.12260 Y0.19530
X1.12360 Y0.19530
X1.12360 Y0.19630
X1.12460 Y0.19730
X1.12960 Y0.19830
X1.12860 Y0.23230
X1.12360 Y0.23330
X1.12260 Y0.23430
X1.12260 Y0.23530
X1.12160 Y0.23530
X1.12160 Y0.23630
X1.12060 Y0.23730
X1.12060 Y0.23830
X1.11960 Y0.24030
X1.11960 Y0.24130
X1.12060 Y0.26230
X1.12060 Y0.26330
X1.12160 Y0.26330
X1.12160 Y0.26430
X1.12260 Y0.26430
X1.12260 Y0.26530
X1.12360 Y0.26530
X1.12360 Y0.26630
X1.12460 Y0.26730
X1.12460 Y0.26830
X1.12560 Y0.26930
X1.12560 Y0.27030
X1.12660 Y0.27230
X1.12660 Y0.27330
X1.12560 Y0.33730
X1.12560 Y0.33830
X1.12460 Y0.33930
X1.12460 Y0.34030
X1.12360 Y0.34230
X1.12360 Y0.34330
X1.12260 Y0.34330
X1.12260 Y0.34430
X1.12160 Y0.34430
X1.12160 Y0.34530
X1.12060 Y0.34530
X1.12060 Y0.34630
X1.11960 Y0.34630
X1.11960 Y0.34730
X1.11860 Y0.34730
X1.11860 Y0.34830
X1.11760 Y0.34830
X1.11760 Y0.34930
X1.11660 Y0.34930
X1.11560 Y0.35030
X1.11460 Y0.35030
X1.11260 Y0.35130
X1.11160 Y0.35130
X1.09860 Y0.35230
X1.09760 Y0.35230
X1.09660 Y0.35330
X1.09560 Y0.35330
X1.09560 Y0.35430
X1.09460 Y0.35530
X1.09460 Y0.35630
X1.09560 Y0.35930
X1.09560 Y0.36030
X1.09660 Y0.36130
X1.09660 Y0.36230
X1.09760 Y0.36230
X1.09860 Y0.36330
X1.09960 Y0.36330
X1.10160 Y0.36430
X1.10260 Y0.36430
X1.10260 Y0.36530
X1.10160 Y0.36730
X1.10160 Y0.36830
X1.10060 Y0.36830
X1.10060 Y0.36930
X1.09960 Y0.36930
X1.09960 Y0.37030
X1.09860 Y0.37030
X1.09860 Y0.37130
X1.09760 Y0.37130
X1.09760 Y0.37230
X1.09660 Y0.37230
X1.09660 Y0.37330
X1.09560 Y0.37330
X1.09560 Y0.37430
X1.09460 Y0.37430
X1.09460 Y0.37530
X1.09360 Y0.37530
X1.09360 Y0.37630
X1.09260 Y0.37630
X1.09260 Y0.37730
X1.09160 Y0.37730
X1.09160 Y0.37830
X1.09060 Y0.37830
X1.08660 Y0.37730
X1.08560 Y0.37730
X1.08060 Y0.37630
X1.07960 Y0.37630
X1.07860 Y0.37730
X1.07760 Y0.37730
X1.07260 Y0.37830
X1.07160 Y0.37830
X1.06860 Y0.37730
X1.06760 Y0.37730
X1.06760 Y0.37630
X1.06660 Y0.37630
X1.06660 Y0.37530
X1.06560 Y0.37530
X1.06560 Y0.37430
X1.06460 Y0.37430
X1.06460 Y0.37330
X1.06360 Y0.37330
X1.06360 Y0.37230
X1.06260 Y0.37230
X1.06260 Y0.37130
X1.06160 Y0.37130
X1.06160 Y0.37030
X1.06060 Y0.37030
X1.06060 Y0.36930
X1.05960 Y0.36930
X1.05960 Y0.36830
X1.05860 Y0.36830
X1.05860 Y0.36730
X1.05760 Y0.36730
X1.05760 Y0.36630
X1.05860 Y0.36330
X1.05960 Y0.36230
X1.06060 Y0.36230
X1.06260 Y0.36130
X1.06360 Y0.36030
X1.06360 Y0.35930
X1.06460 Y0.35830
X1.06460 Y0.35730
X1.06360 Y0.35530
X1.06360 Y0.35430
X1.06260 Y0.35430
X1.06260 Y0.35330
X1.06160 Y0.35230
X1.06060 Y0.35130
X1.05960 Y0.35130
X1.04660 Y0.35030
X1.04560 Y0.35030
X1.04460 Y0.34930
X1.04360 Y0.34930
X1.04260 Y0.34830
X1.04160 Y0.34830
X1.04060 Y0.34730
X1.03960 Y0.34730
X1.03960 Y0.34630
X1.03860 Y0.34630
X1.03860 Y0.34530
X1.03760 Y0.34530
X1.03760 Y0.34430
X1.03660 Y0.34430
X1.03660 Y0.34330
X1.03560 Y0.34330
X1.03560 Y0.34230
X1.03460 Y0.34030
X1.03460 Y0.33930
X1.03360 Y0.33930
X1.03360 Y0.33830
X1.03260 Y0.33830
X1.02960 Y0.33730
X1.03060 Y0.20330
X1.03360 Y0.20230
X1.03460 Y0.20130
X1.03460 Y0.20030
X1.03560 Y0.20030
X1.03560 Y0.19930
X1.03660 Y0.19830
X1.03660 Y0.19730
X1.03760 Y0.19530
X1.03760 Y0.19430
X1.03860 Y0.19330
X1.03860 Y0.19230
X1.03960 Y0.19030
X1.03960 Y0.18930
X1.04060 Y0.18830
X1.04060 Y0.18730
X1.04160 Y0.13530
X1.04160 Y0.13430
X1.04260 Y0.13030
X1.04260 Y0.12930
X1.04360 Y0.12530
X1.04360 Y0.12430
X1.04460 Y0.12130
X1.04460 Y0.12030
X1.04560 Y0.11930
X1.04560 Y0.11830
X1.04660 Y0.11830
X1.04660 Y0.11730
X1.04760 Y0.11630
X1.04760 Y0.11530
X1.04860 Y0.11530
X1.04860 Y0.11430
X1.04960 Y0.11330
X1.04960 Y0.11230
X1.05060 Y0.11230
X1.05060 Y0.11130
X1.05160 Y0.11030
X1.05160 Y0.10930
X1.05260 Y0.10930
X1.05260 Y0.10830
X1.05360 Y0.10730
X1.05360 Y0.10630
X1.05460 Y0.10630
X1.05460 Y0.10530
X1.05560 Y0.10530
X1.05560 Y0.10430
X1.05660 Y0.10430
X1.05660 Y0.10330
X1.05760 Y0.10330
X1.05760 Y0.10230
X1.05860 Y0.10230
X1.05860 Y0.10130
X1.05960 Y0.10130
X1.05960 Y0.10030
X1.06060 Y0.10030
X1.06060 Y0.09930
X1.06160 Y0.09930
X1.06160 Y0.09830
X1.06260 Y0.09830
X1.06260 Y0.09730
X1.06360 Y0.09730
X1.06360 Y0.09630
X1.06460 Y0.09630
X1.06460 Y0.09530
X1.06560 Y0.09530
X1.06560 Y0.09430
X1.06660 Y0.09430
X1.06660 Y0.09330
X1.06760 Y0.09330
X1.06760 Y0.09230
X1.06860 Y0.09230
X1.06860 Y0.09130
X1.06960 Y0.09130
X1.06960 Y0.09030
X1.07060 Y0.09030
X1.07060 Y0.08930
X1.07160 Y0.08930
X1.07160 Y0.08830
X1.07260 Y0.08830
X1.07260 Y0.08730
X1.07360 Y0.08730
X1.07360 Y0.08630
X1.07460 Y0.08630
X1.07460 Y0.08530
X1.07560 Y0.08530
X1.07560 Y0.08430
X1.07660 Y0.08430
X1.07660 Y0.08330
X1.07760 Y0.08330
X1.07760 Y0.08230
X1.07860 Y0.08230
X1.07860 Y0.08130
X1.07960 Y0.08130
X1.07960 Y0.08030
X1.08060 Y0.08030
X1.08060 Y0.07930
X1.08160 Y0.07930
X1.08160 Y0.07830
X1.08260 Y0.07830
X1.08260 Y0.07730
X1.08360 Y0.07730
X1.08360 Y0.07630
X1.08460 Y0.07630
X1.08460 Y0.07530
X1.08560 Y0.07530
X1.08560 Y0.07430
X1.08660 Y0.07430
X1.08660 Y0.07330
X1.08760 Y0.07330
X1.08860 Y0.07230
X1.08960 Y0.07230
X1.08960 Y0.07130
X1.09060 Y0.07130
X1.09160 Y0.07030
X1.09260 Y0.07030
X1.09260 Y0.06930
X1.09360 Y0.06930
X1.09460 Y0.06830
X1.09560 Y0.06830
X1.09560 Y0.06730
X1.09660 Y0.06730
X1.09760 Y0.06630
X1.09860 Y0.06630
X1.09860 Y0.06530
X1.09960 Y0.06530
X1.10060 Y0.06430
X1.10160 Y0.06430
X1.10360 Y0.06330
X1.10460 Y0.06330
X1.10860 Y0.06230
X1.10960 Y0.06230
X1.11360 Y0.06130
X1.11460 Y0.06130
X1.27460 Y0.06230
X1.27560 Y0.06230
X1.27960 Y0.06330
X1.28060 Y0.06330
X1.28460 Y0.06430
X1.28560 Y0.06430
X1.28760 Y0.06530
X1.28860 Y0.06530
X1.28960 Y0.06630
X1.29060 Y0.06630
X1.29060 Y0.06730
X1.29160 Y0.06730
X1.29260 Y0.06830
X1.29360 Y0.06830
X1.29360 Y0.06930
X1.29460 Y0.06930
X1.29560 Y0.07030
X1.29660 Y0.07030
X1.29660 Y0.07130
X1.29760 Y0.07130
X1.29860 Y0.07230
X1.29960 Y0.07230
X1.29960 Y0.07330
X1.30060 Y0.07330
X1.30160 Y0.07430
X1.30260 Y0.07430
X1.30260 Y0.07530
X1.30360 Y0.07530
X1.30360 Y0.07630
X1.30460 Y0.07630
X1.30460 Y0.07730
X1.30560 Y0.07730
X1.30560 Y0.07830
X1.30660 Y0.07830
X1.30660 Y0.07930
X1.30760 Y0.07930
X1.30760 Y0.08030
X1.30860 Y0.08030
X1.30860 Y0.08130
X1.30960 Y0.08130
X1.30960 Y0.08230
X1.31060 Y0.08230
X1.31060 Y0.08330
X1.31160 Y0.08330
X1.31160 Y0.08430
X1.31260 Y0.08430
X1.31260 Y0.08530
X1.31360 Y0.08530
X1.31360 Y0.08630
X1.31460 Y0.08630
X1.31460 Y0.08730
X1.31560 Y0.08730
X1.31560 Y0.08830
X1.31660 Y0.08830
X1.31660 Y0.08930
X1.31760 Y0.08930
X1.31760 Y0.09030
X1.31860 Y0.09030
X1.31860 Y0.09130
X1.31960 Y0.09130
X1.31960 Y0.09230
X1.32060 Y0.09230
X1.32060 Y0.09330
X1.32160 Y0.09330
X1.32160 Y0.09430
X1.32260 Y0.09430
X1.32260 Y0.09530
X1.32360 Y0.09530
X1.32360 Y0.09630
X1.32460 Y0.09630
X1.32460 Y0.09730
X1.32560 Y0.09730
X1.32560 Y0.09830
X1.32660 Y0.09830
X1.32660 Y0.09930
X1.32760 Y0.09930
X1.32760 Y0.10030
X1.32860 Y0.10030
X1.32860 Y0.10130
X1.32960 Y0.10130
X1.32960 Y0.10230
X1.33060 Y0.10230
X1.33060 Y0.10330
X1.33160 Y0.10330
X1.33160 Y0.10430
X1.33260 Y0.10430
X1.33260 Y0.10530
X1.33360 Y0.10530
X1.33360 Y0.10630
X1.33460 Y0.10630
X1.33460 Y0.10730
X1.33560 Y0.10730
X1.33560 Y0.10830
X1.33660 Y0.10830
X1.33660 Y0.10930
X1.33760 Y0.10930
X1.33760 Y0.11030
X1.33860 Y0.11030
X1.33860 Y0.11130
X1.33960 Y0.11130
X1.33960 Y0.11230
X1.34060 Y0.11330
X1.34060 Y0.11430
X1.34160 Y0.11430
X1.34160 Y0.11530
X1.34260 Y0.11630
X1.34260 Y0.11730
X1.34360 Y0.11730
X1.34360 Y0.11830
X1.34460 Y0.11930
X1.34460 Y0.12030
X1.34560 Y0.12030
X1.34560 Y0.12130
X1.34660 Y0.12230
X1.34660 Y0.12330
X1.34760 Y0.12330
X1.34760 Y0.12430
X1.34860 Y0.12530
X1.34860 Y0.12630
X1.34960 Y0.12930
X1.34960 Y0.13030
X1.35060 Y0.13430
X1.35060 Y0.13530
X1.35160 Y0.13930
X1.35160 Y0.14030
X1.35060 Y0.78330
X1.35060 Y0.78430
X1.34960 Y0.78830
X1.34960 Y0.78930
X1.34860 Y0.79330
X1.34860 Y0.79430
X1.34760 Y0.79730
X1.34760 Y0.79830
X1.34660 Y0.79930
X1.34660 Y0.80030
X1.34560 Y0.80030
X1.34560 Y0.80130
X1.34460 Y0.80230
X1.34460 Y0.80330
X1.34360 Y0.80330
X1.34360 Y0.80430
X1.34260 Y0.80530
X1.34260 Y0.80630
X1.34160 Y0.80630
X1.34160 Y0.80730
X1.34060 Y0.80730
X1.34060 Y0.80830
X1.33960 Y0.80930
X1.33960 Y0.81030
X1.33860 Y0.81030
X1.33860 Y0.81130
X1.33760 Y0.81130
X1.33760 Y0.81230
X1.33660 Y0.81230
X1.33660 Y0.81330
X1.33560 Y0.81330
X1.33560 Y0.81430
X1.33460 Y0.81430
X1.33460 Y0.81530
X1.33360 Y0.81530
X1.33360 Y0.81630
X1.33260 Y0.81630
X1.33260 Y0.81730
X1.33160 Y0.81730
X1.33160 Y0.81830
X1.33060 Y0.81830
X1.33060 Y0.81930
X1.32960 Y0.81930
X1.32960 Y0.82030
X1.32860 Y0.82030
X1.32860 Y0.82130
X1.32760 Y0.82130
X1.32760 Y0.82230
X1.32660 Y0.82230
X1.32660 Y0.82330
X1.32560 Y0.82330
X1.32560 Y0.82430
X1.32460 Y0.82430
X1.32460 Y0.82530
X1.32360 Y0.82530
X1.32360 Y0.82630
X1.32260 Y0.82630
X1.32260 Y0.82730
X1.32160 Y0.82730
X1.32160 Y0.82830
X1.32060 Y0.82830
X1.32060 Y0.82930
X1.31960 Y0.82930
X1.31960 Y0.83030
X1.31860 Y0.83030
X1.31860 Y0.83130
X1.31760 Y0.83130
X1.31760 Y0.83230
X1.31660 Y0.83230
X1.31660 Y0.83330
X1.31560 Y0.83330
X1.31560 Y0.83430
X1.31460 Y0.83430
X1.31460 Y0.83530
X1.31360 Y0.83530
X1.31360 Y0.83630
X1.31260 Y0.83630
X1.31260 Y0.83730
X1.31160 Y0.83730
X1.31160 Y0.83830
X1.31060 Y0.83830
X1.31060 Y0.83930
X1.30960 Y0.83930
X1.30960 Y0.84030
X1.30860 Y0.84030
X1.30860 Y0.84130
X1.30760 Y0.84130
X1.30760 Y0.84230
X1.30660 Y0.84230
X1.30660 Y0.84330
X1.30560 Y0.84330
X1.30560 Y0.84430
X1.30460 Y0.84430
X1.30460 Y0.84530
X1.30360 Y0.84530
X1.30360 Y0.84630
X1.30260 Y0.84630
X1.30260 Y0.84730
X1.30160 Y0.84730
X1.30160 Y0.84830
X1.30060 Y0.84830
X1.30060 Y0.84930
X1.29960 Y0.84930
X1.29960 Y0.85030
X1.29860 Y0.85030
X1.29860 Y0.85130
X1.29760 Y0.85130
X1.29760 Y0.85230
X1.29660 Y0.85230
X1.29660 Y0.85330
X1.29560 Y0.85330
X1.29560 Y0.85430
X1.29460 Y0.85430
X1.29460 Y0.85530
X1.29360 Y0.85530
X1.29360 Y0.85630
X1.29260 Y0.85630
X1.29260 Y0.85730
X1.29160 Y0.85730
X1.29160 Y0.85830
X1.29060 Y0.85830
X1.29060 Y0.85930
X1.28960 Y0.85930
X1.28960 Y0.86030
X1.28860 Y0.86030
X1.28860 Y0.86130
X1.28760 Y0.86130
X1.28760 Y0.86230
X1.28660 Y0.86230
X1.28660 Y0.86330
X1.28560 Y0.86330
X1.28560 Y0.86430
X1.28460 Y0.86430
X1.28460 Y0.86530
X1.28360 Y0.86530
X1.28360 Y0.86630
X1.28260 Y0.86630
X1.28260 Y0.86730
X1.28160 Y0.86730
X1.28160 Y0.86830
X1.28060 Y0.86830
X1.28060 Y0.86930
X1.27960 Y0.86930
X1.27960 Y0.87030
X1.27860 Y0.87030
X1.27860 Y0.87130
X1.27760 Y0.87130
X1.27760 Y0.87230
X1.27660 Y0.87230
X1.27660 Y0.87330
X1.27560 Y0.87330
X1.27560 Y0.87430
X1.27460 Y0.87430
X1.27460 Y0.87530
X1.27360 Y0.87530
X1.27360 Y0.87630
X1.27260 Y0.87630
X1.27260 Y0.87730
X1.27160 Y0.87730
X1.27160 Y0.87830
X1.27060 Y0.87830
X1.27060 Y0.87930
X1.26960 Y0.87930
X1.26960 Y0.88030
X1.26860 Y0.88030
X1.26860 Y0.88130
X1.26760 Y0.88130
X1.26760 Y0.88230
X1.26660 Y0.88230
X1.26660 Y0.88330
X1.26560 Y0.88330
X1.26560 Y0.88430
X1.26460 Y0.88430
X1.26460 Y0.88530
X1.26360 Y0.88530
X1.26360 Y0.88630
X1.26260 Y0.88630
X1.26260 Y0.88730
X1.26160 Y0.88730
X1.26160 Y0.88830
X1.26060 Y0.88830
X1.26060 Y0.88930
X1.25960 Y0.88930
X1.25960 Y0.89030
X1.25860 Y0.89030
X1.25860 Y0.89130
X1.25760 Y0.89130
X1.25760 Y0.89230
X1.25660 Y0.89230
X1.25660 Y0.89330
X1.25560 Y0.89330
X1.25560 Y0.89430
X1.25460 Y0.89430
X1.25460 Y0.89530
X1.25360 Y0.89530
X1.25360 Y0.89630
X1.25260 Y0.89630
X1.25260 Y0.89730
X1.25160 Y0.89730
X1.25160 Y0.89830
X1.25060 Y0.89830
X1.25060 Y0.89930
X1.24960 Y0.89930
X1.24960 Y0.90030
X1.24860 Y0.90030
X1.24860 Y0.90130
X1.24760 Y0.90130
X1.24760 Y0.90230
X1.24660 Y0.90230
X1.24660 Y0.90330
X1.24560 Y0.90330
X1.24560 Y0.90430
X1.24460 Y0.90430
X1.24460 Y0.90530
X1.24360 Y0.90530
X1.24360 Y0.90630
X1.24260 Y0.90630
X1.24260 Y0.90730
X1.24160 Y0.90730
X1.24160 Y0.90830
X1.24060 Y0.90830
X1.24060 Y0.90930
X1.23960 Y0.90930
X1.23960 Y0.91030
X1.23860 Y0.91030
X1.23860 Y0.91130
X1.23760 Y0.91130
X1.23760 Y0.91230
X1.23660 Y0.91230
X1.23660 Y0.91330
X1.23560 Y0.91330
X1.23560 Y0.91430
X1.23460 Y0.91430
X1.23460 Y0.91530
X1.23360 Y0.91530
X1.23360 Y0.91630
X1.23260 Y0.91630
X1.23260 Y0.91730
X1.23160 Y0.91730
X1.23160 Y0.91830
X1.23060 Y0.91830
X1.23060 Y0.91930
X1.22960 Y0.92030
X1.22960 Y0.92130
X1.22860 Y0.94030
X1.22860 Y0.94130
X1.22760 Y0.94230
X1.22760 Y0.94330
X1.22660 Y0.94430
X1.22660 Y0.94530
X1.22560 Y0.94730
X1.22560 Y0.94830
X1.22460 Y0.94930
X1.22460 Y0.95030
X1.22360 Y0.95230
X1.22360 Y0.95330
X1.22260 Y0.95430
X1.22260 Y0.95530
X1.22160 Y0.95630
X1.22160 Y0.95730
X1.22060 Y0.95830
X1.22060 Y0.95930
X1.21960 Y0.95930
X1.21960 Y0.96030
X1.21860 Y0.96030
X1.21860 Y0.96130
X1.21760 Y0.96130
X1.21760 Y0.96230
X1.21660 Y0.96230
X1.21660 Y0.96330
X1.21560 Y0.96330
X1.21560 Y0.96430
X1.21460 Y0.96430
X1.21460 Y0.96530
X1.21360 Y0.96530
X1.21360 Y0.96630
X1.21260 Y0.96630
X1.21260 Y0.96730
X1.21160 Y0.96730
X1.21160 Y0.96830
X1.21060 Y0.96830
X1.21060 Y0.96930
X1.20960 Y0.96930
X1.20960 Y0.97030
X1.20860 Y0.97030
X1.20860 Y0.97130
X1.20760 Y0.97130
X1.20760 Y0.97230
X1.20660 Y0.97230
X1.20560 Y0.97330
X1.20460 Y0.97330
X1.20260 Y0.97430
X1.20160 Y0.97430
X1.20060 Y0.97530
X1.19960 Y0.97530
X1.19760 Y0.97630
X1.19660 Y0.97630
X1.19560 Y0.97730
X1.19460 Y0.97730
X1.19360 Y0.97830
X1.19260 Y0.97830
X1.19060 Y0.97930
X1.18960 Y0.97930
X1.16860 Y0.97830
X1.16760 Y0.97830
X1.16660 Y0.97730
X1.16560 Y0.97730
X1.16460 Y0.97630
X1.16360 Y0.97630
X1.16160 Y0.97530
X1.16060 Y0.97530
X1.15960 Y0.97430
X1.15860 Y0.97430
X1.15660 Y0.97330
X1.15560 Y0.97330
X1.15460 Y0.97230
X1.15360 Y0.97230
X1.15260 Y0.97130
X1.15160 Y0.97130
X1.15160 Y0.97030
X1.15060 Y0.97030
X1.15060 Y0.96930
X1.14960 Y0.96930
X1.14960 Y0.96830
X1.14860 Y0.96830
X1.14860 Y0.96730
X1.14760 Y0.96730
X1.14760 Y0.96630
X1.14660 Y0.96630
X1.14660 Y0.96530
X1.14560 Y0.96530
X1.14560 Y0.96430
X1.14460 Y0.96430
X1.14460 Y0.96330
X1.14360 Y0.96330
X1.14360 Y0.96230
X1.14260 Y0.96230
X1.14260 Y0.96130
X1.14160 Y0.96130
X1.14160 Y0.96030
X1.14060 Y0.96030
X1.14060 Y0.95930
X1.13960 Y0.95930
X1.13960 Y0.95830
X1.13860 Y0.95830
X1.13860 Y0.95730
X1.13760 Y0.95730
X1.13760 Y0.95630
X1.13660 Y0.95530
X1.13660 Y0.95430
X1.13560 Y0.95330
X1.13560 Y0.95230
G00 Z0.80000 ( retract )

G00 X0.93060 Y0.95130 ( rapid move to begin. )
G01 Z-0.00800 F6.00000 ( plunge. )
X0.93060 Y0.95130
X0.92960 Y0.95130
X0.92960 Y0.95030
X0.93060 Y0.94930
X0.93060 Y0.94830
X0.93160 Y0.88130
X0.93360 Y0.88030
X0.93460 Y0.88030
X0.93460 Y0.87930
X0.93560 Y0.87930
X0.93560 Y0.87830
X0.93660 Y0.87630
X0.93660 Y0.87530
X0.93760 Y0.87430
X0.93760 Y0.87330
X0.93860 Y0.87130
X0.93860 Y0.87030
X0.93960 Y0.87030
X0.93960 Y0.86930
X0.94060 Y0.86830
X0.94060 Y0.86730
X0.93960 Y0.77930
X0.93960 Y0.77830
X0.93860 Y0.77630
X0.93860 Y0.77530
X0.93760 Y0.77530
X0.93760 Y0.77430
X0.93660 Y0.77430
X0.93660 Y0.77330
X0.93560 Y0.77330
X0.93560 Y0.77230
X0.93460 Y0.77230
X0.93460 Y0.77130
X0.93360 Y0.77130
X0.93260 Y0.77030
X0.93160 Y0.77030
X0.93060 Y0.76930
X0.92960 Y0.76930
X0.77760 Y0.76830
X0.77660 Y0.76830
X0.77260 Y0.76730
X0.77160 Y0.76730
X0.76760 Y0.76630
X0.76660 Y0.76630
X0.76460 Y0.76530
X0.76360 Y0.76530
X0.76360 Y0.76430
X0.76260 Y0.76430
X0.76160 Y0.76330
X0.76060 Y0.76330
X0.76060 Y0.76230
X0.75960 Y0.76230
X0.75860 Y0.76130
X0.75760 Y0.76130
X0.75760 Y0.76030
X0.75660 Y0.76030
X0.75560 Y0.75930
X0.75460 Y0.75930
X0.75460 Y0.75830
X0.75360 Y0.75830
X0.75260 Y0.75730
X0.75160 Y0.75730
X0.75160 Y0.75630
X0.75060 Y0.75630
X0.75060 Y0.75530
X0.74960 Y0.75530
X0.74960 Y0.75430
X0.74860 Y0.75430
X0.74860 Y0.75330
X0.74760 Y0.75330
X0.74760 Y0.75230
X0.74660 Y0.75230
X0.74660 Y0.75130
X0.74560 Y0.75130
X0.74560 Y0.75030
X0.74460 Y0.75030
X0.74460 Y0.74930
X0.74360 Y0.74930
X0.74360 Y0.74830
X0.74260 Y0.74830
X0.74260 Y0.74730
X0.74160 Y0.74730
X0.74160 Y0.74630
X0.74060 Y0.74630
X0.74060 Y0.74530
X0.73960 Y0.74530
X0.73960 Y0.74430
X0.73860 Y0.74430
X0.73860 Y0.74330
X0.73760 Y0.74330
X0.73760 Y0.74230
X0.73660 Y0.74230
X0.73660 Y0.74130
X0.73560 Y0.74130
X0.73560 Y0.74030
X0.73460 Y0.74030
X0.73460 Y0.73930
X0.73360 Y0.73930
X0.73360 Y0.73830
X0.73260 Y0.73830
X0.73260 Y0.73730
X0.73160 Y0.73730
X0.73160 Y0.73630
X0.73060 Y0.73630
X0.73060 Y0.73530
X0.72960 Y0.73530
X0.72960 Y0.73430
X0.72860 Y0.73430
X0.72860 Y0.73330
X0.72760 Y0.73330
X0.72760 Y0.73230
X0.72660 Y0.73230
X0.72660 Y0.73130
X0.72560 Y0.73130
X0.72560 Y0.73030
X0.72460 Y0.73030
X0.72460 Y0.72930
X0.72360 Y0.72930
X0.72360 Y0.72830
X0.72260 Y0.72830
X0.72260 Y0.72730
X0.72160 Y0.72730
X0.72160 Y0.72630
X0.72060 Y0.72630
X0.72060 Y0.72530
X0.71960 Y0.72530
X0.71960 Y0.72430
X0.71860 Y0.72430
X0.71860 Y0.72330
X0.71760 Y0.72330
X0.71760 Y0.72230
X0.71660 Y0.72230
X0.71660 Y0.72130
X0.71560 Y0.72130
X0.71560 Y0.72030
X0.71460 Y0.72030
X0.71460 Y0.71930
X0.71360 Y0.71930
X0.71360 Y0.71830
X0.71260 Y0.71830
X0.71260 Y0.71730
X0.71160 Y0.71730
X0.71160 Y0.71630
X0.71060 Y0.71630
X0.71060 Y0.71530
X0.70960 Y0.71530
X0.70960 Y0.71430
X0.70860 Y0.71430
X0.70860 Y0.71330
X0.70760 Y0.71330
X0.70760 Y0.71230
X0.70660 Y0.71230
X0.70660 Y0.71130
X0.70560 Y0.71130
X0.70560 Y0.71030
X0.70460 Y0.71030
X0.70460 Y0.70930
X0.70360 Y0.70930
X0.70360 Y0.70830
X0.70260 Y0.70830
X0.70260 Y0.70730
X0.70160 Y0.70730
X0.70160 Y0.70630
X0.70060 Y0.70630
X0.70060 Y0.70530
X0.69960 Y0.70530
X0.69960 Y0.70430
X0.69860 Y0.70430
X0.69860 Y0.70330
X0.69760 Y0.70330
X0.69760 Y0.70230
X0.69660 Y0.70230
X0.69660 Y0.70130
X0.69560 Y0.70130
X0.69560 Y0.70030
X0.69460 Y0.70030
X0.69460 Y0.69930
X0.69360 Y0.69930
X0.69360 Y0.69830
X0.69260 Y0.69830
X0.69260 Y0.69730
X0.69160 Y0.69730
X0.69160 Y0.69630
X0.69060 Y0.69630
X0.69060 Y0.69530
X0.68960 Y0.69530
X0.68960 Y0.69430
X0.68860 Y0.69430
X0.68860 Y0.69330
X0.68760 Y0.69330
X0.68760 Y0.69230
X0.68660 Y0.69230
X0.68660 Y0.69130
X0.68560 Y0.69130
X0.68560 Y0.69030
X0.68460 Y0.69030
X0.68460 Y0.68930
X0.68360 Y0.68830
X0.68360 Y0.68730
X0.68260 Y0.68730
X0.68260 Y0.68630
X0.68160 Y0.68530
X0.68160 Y0.68430
X0.68060 Y0.68430
X0.68060 Y0.68330
X0.67960 Y0.68230
X0.67960 Y0.68130
X0.67860 Y0.68130
X0.67860 Y0.68030
X0.67760 Y0.67930
X0.67760 Y0.67830
X0.67660 Y0.67830
X0.67660 Y0.67730
X0.67560 Y0.67630
X0.67560 Y0.67530
X0.67460 Y0.67330
X0.67460 Y0.67230
X0.67360 Y0.66830
X0.67360 Y0.66730
X0.67260 Y0.66330
X0.67260 Y0.66230
X0.67360 Y0.15830
X0.67360 Y0.15730
X0.67460 Y0.15330
X0.67460 Y0.15230
X0.67560 Y0.14830
X0.67560 Y0.14730
X0.67660 Y0.14430
X0.67660 Y0.14330
X0.67760 Y0.14330
X0.67760 Y0.14230
X0.67860 Y0.14130
X0.67860 Y0.14030
X0.67960 Y0.14030
X0.67960 Y0.13930
X0.68060 Y0.13830
X0.68060 Y0.13730
X0.68160 Y0.13730
X0.68160 Y0.13630
X0.68260 Y0.13530
X0.68260 Y0.13430
X0.68360 Y0.13430
X0.68360 Y0.13330
X0.68460 Y0.13230
X0.68460 Y0.13130
X0.68560 Y0.13130
X0.68560 Y0.13030
X0.68660 Y0.13030
X0.68660 Y0.12930
X0.68760 Y0.12930
X0.68760 Y0.12830
X0.68860 Y0.12830
X0.68860 Y0.12730
X0.68960 Y0.12730
X0.68960 Y0.12630
X0.69060 Y0.12630
X0.69060 Y0.12530
X0.69160 Y0.12530
X0.69160 Y0.12430
X0.69260 Y0.12430
X0.69260 Y0.12330
X0.69360 Y0.12330
X0.69360 Y0.12230
X0.69460 Y0.12230
X0.69460 Y0.12130
X0.69560 Y0.12130
X0.69560 Y0.12030
X0.69660 Y0.12030
X0.69660 Y0.11930
X0.69760 Y0.11930
X0.69760 Y0.11830
X0.69860 Y0.11830
X0.69860 Y0.11730
X0.69960 Y0.11730
X0.69960 Y0.11630
X0.70060 Y0.11630
X0.70060 Y0.11530
X0.70160 Y0.11530
X0.70160 Y0.11430
X0.70260 Y0.11430
X0.70260 Y0.11330
X0.70360 Y0.11330
X0.70360 Y0.11230
X0.70460 Y0.11230
X0.70460 Y0.11130
X0.70560 Y0.11130
X0.70560 Y0.11030
X0.70660 Y0.11030
X0.70660 Y0.10930
X0.70760 Y0.10930
X0.70760 Y0.10830
X0.70860 Y0.10830
X0.70860 Y0.10730
X0.70960 Y0.10730
X0.70960 Y0.10630
X0.71060 Y0.10630
X0.71060 Y0.10530
X0.71160 Y0.10530
X0.71160 Y0.10430
X0.71260 Y0.10430
X0.71260 Y0.10330
X0.71360 Y0.10330
X0.71360 Y0.10230
X0.71460 Y0.10230
X0.71460 Y0.10130
X0.71560 Y0.10130
X0.71560 Y0.10030
X0.71660 Y0.10030
X0.71660 Y0.09930
X0.71760 Y0.09930
X0.71760 Y0.09830
X0.71860 Y0.09830
X0.71860 Y0.09730
X0.71960 Y0.09730
X0.71960 Y0.09630
X0.72060 Y0.09630
X0.72060 Y0.09530
X0.72160 Y0.09530
X0.72160 Y0.09430
X0.72260 Y0.09430
X0.72260 Y0.09330
X0.72360 Y0.09330
X0.72360 Y0.09230
X0.72460 Y0.09230
X0.72460 Y0.09130
X0.72560 Y0.09130
X0.72560 Y0.09030
X0.72660 Y0.09030
X0.72660 Y0.08930
X0.72760 Y0.08930
X0.72760 Y0.08830
X0.72860 Y0.08830
X0.72860 Y0.08730
X0.72960 Y0.08730
X0.72960 Y0.08630
X0.73060 Y0.08630
X0.73060 Y0.08530
X0.73160 Y0.08530
X0.73160 Y0.08430
X0.73260 Y0.08430
X0.73260 Y0.08330
X0.73360 Y0.08330
X0.73360 Y0.08230
X0.73460 Y0.08230
X0.73460 Y0.08130
X0.73560 Y0.08130
X0.73560 Y0.08030
X0.73660 Y0.08030
X0.73660 Y0.07930
X0.73760 Y0.07930
X0.73760 Y0.07830
X0.73860 Y0.07830
X0.73860 Y0.07730
X0.73960 Y0.07730
X0.73960 Y0.07630
X0.74060 Y0.07630
X0.74060 Y0.07530
X0.74160 Y0.07530
X0.74160 Y0.07430
X0.74260 Y0.07430
X0.74260 Y0.07330
X0.74360 Y0.07330
X0.74360 Y0.07230
X0.74460 Y0.07230
X0.74560 Y0.07130
X0.74660 Y0.07130
X0.74660 Y0.07030
X0.74760 Y0.07030
X0.74860 Y0.06930
X0.74960 Y0.06930
X0.74960 Y0.06830
X0.75060 Y0.06830
X0.75160 Y0.06730
X0.75260 Y0.06730
X0.75260 Y0.06630
X0.75360 Y0.06630
X0.75460 Y0.06530
X0.75560 Y0.06530
X0.75560 Y0.06430
X0.75660 Y0.06430
X0.75960 Y0.06330
X0.76060 Y0.06330
X0.76460 Y0.06230
X0.76560 Y0.06230
X0.76960 Y0.06130
X0.77060 Y0.06130
X0.93960 Y0.06230
X0.94060 Y0.06230
X0.94460 Y0.06330
X0.94560 Y0.06330
X0.94960 Y0.06430
X0.95060 Y0.06430
X0.95360 Y0.06530
X0.95460 Y0.06530
X0.95460 Y0.06630
X0.95560 Y0.06630
X0.95660 Y0.06730
X0.95760 Y0.06730
X0.95760 Y0.06830
X0.95860 Y0.06830
X0.95960 Y0.06930
X0.96060 Y0.06930
X0.96060 Y0.07030
X0.96160 Y0.07030
X0.96260 Y0.07130
X0.96360 Y0.07130
X0.96360 Y0.07230
X0.96460 Y0.07230
X0.96560 Y0.07330
X0.96660 Y0.07330
X0.96660 Y0.07430
X0.96760 Y0.07430
X0.96760 Y0.07530
X0.96860 Y0.07530
X0.96860 Y0.07630
X0.96960 Y0.07630
X0.96960 Y0.07730
X0.97060 Y0.07730
X0.97060 Y0.07830
X0.97160 Y0.07830
X0.97160 Y0.07930
X0.97260 Y0.07930
X0.97260 Y0.08030
X0.97360 Y0.08030
X0.97360 Y0.08130
X0.97460 Y0.08130
X0.97460 Y0.08230
X0.97560 Y0.08230
X0.97560 Y0.08330
X0.97660 Y0.08330
X0.97660 Y0.08430
X0.97760 Y0.08430
X0.97760 Y0.08530
X0.97860 Y0.08530
X0.97860 Y0.08630
X0.97960 Y0.08630
X0.97960 Y0.08730
X0.98060 Y0.08730
X0.98060 Y0.08830
X0.98160 Y0.08830
X0.98160 Y0.08930
X0.98260 Y0.08930
X0.98260 Y0.09030
X0.98360 Y0.09030
X0.98360 Y0.09130
X0.98460 Y0.09130
X0.98460 Y0.09230
X0.98560 Y0.09230
X0.98560 Y0.09330
X0.98660 Y0.09330
X0.98660 Y0.09430
X0.98760 Y0.09430
X0.98760 Y0.09530
X0.98860 Y0.09530
X0.98860 Y0.09630
X0.98960 Y0.09630
X0.98960 Y0.09730
X0.99060 Y0.09730
X0.99060 Y0.09830
X0.99160 Y0.09830
X0.99160 Y0.09930
X0.99260 Y0.09930
X0.99260 Y0.10030
X0.99360 Y0.10030
X0.99360 Y0.10130
X0.99460 Y0.10130
X0.99460 Y0.10230
X0.99560 Y0.10230
X0.99560 Y0.10330
X0.99660 Y0.10330
X0.99660 Y0.10430
X0.99760 Y0.10430
X0.99760 Y0.10530
X0.99860 Y0.10530
X0.99860 Y0.10630
X0.99960 Y0.10630
X0.99960 Y0.10730
X1.00060 Y0.10730
X1.00060 Y0.10830
X1.00160 Y0.10830
X1.00160 Y0.10930
X1.00260 Y0.10930
X1.00260 Y0.11030
X1.00360 Y0.11030
X1.00360 Y0.11130
X1.00460 Y0.11130
X1.00460 Y0.11230
X1.00560 Y0.11230
X1.00560 Y0.11330
X1.00660 Y0.11330
X1.00660 Y0.11430
X1.00760 Y0.11430
X1.00760 Y0.11530
X1.00860 Y0.11530
X1.00860 Y0.11630
X1.00960 Y0.11730
X1.00960 Y0.11830
X1.01060 Y0.11830
X1.01060 Y0.11930
X1.01160 Y0.12030
X1.01160 Y0.12130
X1.01260 Y0.12130
X1.01260 Y0.12230
X1.01360 Y0.12330
X1.01360 Y0.12430
X1.01460 Y0.12430
X1.01460 Y0.12530
X1.01560 Y0.12630
X1.01560 Y0.12730
X1.01660 Y0.12830
X1.01660 Y0.12930
X1.01760 Y0.13330
X1.01760 Y0.13430
X1.01860 Y0.13830
X1.01860 Y0.13930
X1.01960 Y0.14330
X1.01960 Y0.14430
X1.02060 Y0.18930
X1.02060 Y0.19030
X1.02160 Y0.19230
X1.02160 Y0.19330
X1.02260 Y0.19430
X1.02260 Y0.19530
X1.02360 Y0.19630
X1.02360 Y0.19730
X1.02460 Y0.19930
X1.02460 Y0.20030
X1.02560 Y0.20130
X1.02560 Y0.20230
X1.02660 Y0.20230
X1.02660 Y0.20330
X1.02760 Y0.20330
X1.02960 Y0.20430
X1.02860 Y0.33830
X1.02660 Y0.33930
X1.02560 Y0.33930
X1.02560 Y0.34030
X1.02460 Y0.34030
X1.02460 Y0.34130
X1.02360 Y0.34230
X1.02360 Y0.34330
X1.02260 Y0.34330
X1.02260 Y0.34430
X1.02160 Y0.34430
X1.02160 Y0.34530
X1.02060 Y0.34530
X1.02060 Y0.34630
X1.01960 Y0.34630
X1.01960 Y0.34730
X1.01860 Y0.34730
X1.01860 Y0.34830
X1.01760 Y0.34830
X1.01760 Y0.34930
X1.01660 Y0.34930
X1.01560 Y0.35030
X1.01460 Y0.35030
X1.01260 Y0.35130
X1.01160 Y0.35130
X0.99860 Y0.35230
X0.99760 Y0.35230
X0.99660 Y0.35330
X0.99560 Y0.35330
X0.99560 Y0.35430
X0.99460 Y0.35530
X0.99460 Y0.35630
X0.99560 Y0.35930
X0.99560 Y0.36030
X0.99660 Y0.36130
X0.99660 Y0.36230
X0.99760 Y0.36230
X0.99860 Y0.36330
X0.99960 Y0.36330
X1.00160 Y0.36430
X1.00260 Y0.36430
X1.00260 Y0.36530
X1.00160 Y0.36730
X1.00160 Y0.36830
X1.00060 Y0.36830
X1.00060 Y0.36930
X0.99960 Y0.36930
X0.99960 Y0.37030
X0.99860 Y0.37030
X0.99860 Y0.37130
X0.99760 Y0.37130
X0.99760 Y0.37230
X0.99660 Y0.37230
X0.99660 Y0.37330
X0.99560 Y0.37330
X0.99560 Y0.37430
X0.99460 Y0.37430
X0.99460 Y0.37530
X0.99360 Y0.37530
X0.99360 Y0.37630
X0.99260 Y0.37630
X0.99260 Y0.37730
X0.99160 Y0.37730
X0.99160 Y0.37830
X0.99060 Y0.37830
X0.98660 Y0.37730
X0.98560 Y0.37730
X0.98060 Y0.37630
X0.97960 Y0.37630
X0.97860 Y0.37730
X0.97760 Y0.37730
X0.97660 Y0.37630
X0.97560 Y0.37630
X0.97560 Y0.37530
X0.97460 Y0.37330
X0.97460 Y0.37230
X0.97360 Y0.37030
X0.97360 Y0.36930
X0.97260 Y0.36930
X0.97160 Y0.36830
X0.97060 Y0.36830
X0.97060 Y0.36730
X0.96960 Y0.36730
X0.96960 Y0.36630
X0.96860 Y0.36630
X0.96760 Y0.36530
X0.96660 Y0.36530
X0.96660 Y0.36430
X0.96560 Y0.36430
X0.96460 Y0.36330
X0.96360 Y0.36330
X0.96260 Y0.36230
X0.96360 Y0.36030
X0.96360 Y0.35930
X0.96460 Y0.35830
X0.96460 Y0.35730
X0.96360 Y0.35530
X0.96360 Y0.35430
X0.96260 Y0.35430
X0.96260 Y0.35330
X0.96160 Y0.35230
X0.96060 Y0.35130
X0.95960 Y0.35130
X0.94660 Y0.35030
X0.94560 Y0.35030
X0.94460 Y0.34930
X0.94360 Y0.34930
X0.94260 Y0.34830
X0.94160 Y0.34830
X0.94060 Y0.34730
X0.93960 Y0.34730
X0.93960 Y0.34630
X0.93860 Y0.34630
X0.93860 Y0.34530
X0.93760 Y0.34530
X0.93760 Y0.34430
X0.93660 Y0.34430
X0.93660 Y0.34330
X0.93560 Y0.34330
X0.93560 Y0.34230
X0.93460 Y0.34030
X0.93460 Y0.33930
X0.93360 Y0.33830
X0.93360 Y0.33730
X0.93260 Y0.33630
X0.93260 Y0.33530
X0.93160 Y0.32230
X0.93160 Y0.32130
X0.93060 Y0.32030
X0.93060 Y0.31930
X0.92960 Y0.31930
X0.92460 Y0.32030
X0.92360 Y0.32030
X0.92360 Y0.32130
X0.92260 Y0.32130
X0.92160 Y0.32030
X0.92060 Y0.31930
X0.92060 Y0.31830
X0.91960 Y0.31530
X0.91960 Y0.31430
X0.91860 Y0.31230
X0.91760 Y0.31130
X0.91660 Y0.31030
X0.91660 Y0.30930
X0.91560 Y0.30930
X0.91560 Y0.30830
X0.91460 Y0.30830
X0.91460 Y0.30730
X0.91360 Y0.30730
X0.91360 Y0.30630
X0.91260 Y0.30630
X0.91260 Y0.30530
X0.91160 Y0.30530
X0.91160 Y0.30430
X0.91060 Y0.30430
X0.91060 Y0.30330
X0.90960 Y0.30330
X0.90960 Y0.30230
X0.90860 Y0.30230
X0.90860 Y0.30130
X0.90760 Y0.30130
X0.90760 Y0.30030
X0.90660 Y0.30030
X0.90660 Y0.29930
X0.90560 Y0.29530
X0.90560 Y0.29430
X0.90660 Y0.29330
X0.90660 Y0.29230
X0.90760 Y0.29230
X0.90760 Y0.29130
X0.90860 Y0.29130
X0.90860 Y0.29030
X0.90960 Y0.29030
X0.90960 Y0.28930
X0.91060 Y0.28930
X0.91060 Y0.28830
X0.91160 Y0.28830
X0.91160 Y0.28730
X0.91260 Y0.28730
X0.91260 Y0.28630
X0.91360 Y0.28630
X0.91360 Y0.28530
X0.91460 Y0.28530
X0.91460 Y0.28430
X0.91560 Y0.28430
X0.91560 Y0.28330
X0.91660 Y0.28330
X0.91660 Y0.28230
X0.91760 Y0.28230
X0.92060 Y0.28330
X0.92160 Y0.28330
X0.92160 Y0.28430
X0.92260 Y0.28530
X0.92260 Y0.28630
X0.92360 Y0.28730
X0.92360 Y0.28830
X0.92460 Y0.28830
X0.93060 Y0.28730
X0.93160 Y0.28730
X0.93160 Y0.28630
X0.93260 Y0.28630
X0.93260 Y0.28530
X0.93360 Y0.27330
X0.93360 Y0.27230
X0.93460 Y0.27130
X0.93460 Y0.27030
X0.93560 Y0.26830
X0.93560 Y0.26730
X0.93660 Y0.26630
X0.93660 Y0.26530
X0.93760 Y0.26530
X0.93760 Y0.26430
X0.93860 Y0.26430
X0.93860 Y0.26330
X0.93960 Y0.26330
X0.93960 Y0.26230
X0.94060 Y0.26130
X0.94060 Y0.26030
X0.93960 Y0.24130
X0.93960 Y0.24030
X0.93860 Y0.23830
X0.93860 Y0.23730
X0.93760 Y0.23630
X0.93760 Y0.23530
X0.93660 Y0.23330
X0.93660 Y0.23230
X0.93560 Y0.23130
X0.93560 Y0.23030
X0.93460 Y0.22930
X0.93460 Y0.22830
X0.93360 Y0.22730
X0.93360 Y0.22630
X0.93260 Y0.22530
X0.93260 Y0.22430
X0.93160 Y0.22430
X0.92660 Y0.22530
X0.92560 Y0.22530
X0.92560 Y0.22630
X0.92460 Y0.22630
X0.92460 Y0.22730
X0.92360 Y0.22730
X0.92360 Y0.22830
X0.92260 Y0.23030
X0.92260 Y0.23130
X0.92160 Y0.23330
X0.92160 Y0.23430
X0.92060 Y0.23630
X0.92060 Y0.23730
X0.91960 Y0.23730
X0.91760 Y0.23630
X0.91660 Y0.23630
X0.91660 Y0.23530
X0.91560 Y0.23530
X0.91560 Y0.23430
X0.91460 Y0.23430
X0.91460 Y0.23330
X0.91360 Y0.23330
X0.91360 Y0.23230
X0.91260 Y0.23230
X0.91260 Y0.23130
X0.91160 Y0.23130
X0.91160 Y0.23030
X0.91060 Y0.23030
X0.91060 Y0.22930
X0.90960 Y0.22930
X0.90960 Y0.22830
X0.90860 Y0.22830
X0.90860 Y0.22730
X0.90760 Y0.22730
X0.90760 Y0.22630
X0.90660 Y0.22630
X0.90660 Y0.22530
X0.90760 Y0.21930
X0.90760 Y0.21830
X0.90660 Y0.21030
X0.90660 Y0.20930
X0.90560 Y0.20530
X0.90560 Y0.20430
X0.90660 Y0.20330
X0.90660 Y0.20230
X0.90760 Y0.20230
X0.90760 Y0.20130
X0.90860 Y0.20130
X0.90860 Y0.20030
X0.90960 Y0.20030
X0.90960 Y0.19930
X0.91060 Y0.19930
X0.91060 Y0.19830
X0.91160 Y0.19830
X0.91160 Y0.19730
X0.91260 Y0.19730
X0.91260 Y0.19630
X0.91360 Y0.19630
X0.91360 Y0.19530
X0.91460 Y0.19530
X0.91460 Y0.19430
X0.91560 Y0.19430
X0.91560 Y0.19330
X0.91660 Y0.19330
X0.91660 Y0.19230
X0.91760 Y0.19230
X0.92060 Y0.19330
X0.92160 Y0.19330
X0.92160 Y0.19430
X0.92260 Y0.19530
X0.92260 Y0.19630
X0.92360 Y0.19830
X0.92360 Y0.19930
X0.92460 Y0.20030
X0.92460 Y0.20130
X0.92560 Y0.20230
X0.92560 Y0.20330
X0.92660 Y0.20330
X0.92660 Y0.20430
X0.92760 Y0.20430
X0.93260 Y0.20330
X0.93360 Y0.20330
X0.93360 Y0.20230
X0.93460 Y0.20230
X0.93460 Y0.20130
X0.93560 Y0.20030
X0.93560 Y0.19930
X0.93660 Y0.19830
X0.93660 Y0.19730
X0.93760 Y0.19530
X0.93760 Y0.19430
X0.93860 Y0.19330
X0.93860 Y0.19230
X0.93960 Y0.19030
X0.93960 Y0.18930
X0.94060 Y0.18830
X0.94060 Y0.18730
X0.93960 Y0.15930
X0.93960 Y0.15830
X0.93860 Y0.15630
X0.93860 Y0.15530
X0.93760 Y0.15530
X0.93760 Y0.15430
X0.93660 Y0.15430
X0.93660 Y0.15330
X0.93560 Y0.15330
X0.93560 Y0.15230
X0.93460 Y0.15230
X0.93460 Y0.15130
X0.93360 Y0.15130
X0.93360 Y0.15030
X0.93260 Y0.15030
X0.93260 Y0.14930
X0.93160 Y0.14930
X0.93160 Y0.14830
X0.93060 Y0.14830
X0.93060 Y0.14730
X0.92960 Y0.14730
X0.92960 Y0.14630
X0.92860 Y0.14630
X0.92860 Y0.14530
X0.92760 Y0.14530
X0.92760 Y0.14430
X0.92660 Y0.14430
X0.92660 Y0.14330
X0.92560 Y0.14330
X0.92560 Y0.14230
X0.92460 Y0.14230
X0.92460 Y0.14130
X0.92360 Y0.14130
X0.92260 Y0.14030
X0.92160 Y0.14030
X0.92060 Y0.13930
X0.91960 Y0.13930
X0.78860 Y0.14030
X0.78760 Y0.14030
X0.78660 Y0.14130
X0.78560 Y0.14130
X0.78460 Y0.14230
X0.78360 Y0.14230
X0.78360 Y0.14330
X0.78260 Y0.14330
X0.78260 Y0.14430
X0.78160 Y0.14430
X0.78160 Y0.14530
X0.78060 Y0.14530
X0.78060 Y0.14630
X0.77960 Y0.14630
X0.77960 Y0.14730
X0.77860 Y0.14730
X0.77860 Y0.14830
X0.77760 Y0.14830
X0.77760 Y0.14930
X0.77660 Y0.14930
X0.77660 Y0.15030
X0.77560 Y0.15030
X0.77560 Y0.15130
X0.77460 Y0.15130
X0.77460 Y0.15230
X0.77360 Y0.15230
X0.77360 Y0.15330
X0.77260 Y0.15330
X0.77260 Y0.15430
X0.77160 Y0.15430
X0.77160 Y0.15530
X0.77060 Y0.15530
X0.77060 Y0.15630
X0.76960 Y0.15630
X0.76960 Y0.15730
X0.76860 Y0.15730
X0.76860 Y0.15830
X0.76760 Y0.15830
X0.76760 Y0.15930
X0.76660 Y0.15930
X0.76660 Y0.16030
X0.76560 Y0.16030
X0.76560 Y0.16130
X0.76460 Y0.16130
X0.76460 Y0.16230
X0.76360 Y0.16230
X0.76360 Y0.16330
X0.76260 Y0.16330
X0.76260 Y0.16430
X0.76160 Y0.16430
X0.76160 Y0.16530
X0.76060 Y0.16530
X0.76060 Y0.16630
X0.75960 Y0.16630
X0.75960 Y0.16730
X0.75860 Y0.16730
X0.75860 Y0.16830
X0.75760 Y0.16830
X0.75760 Y0.16930
X0.75660 Y0.16930
X0.75660 Y0.17030
X0.75560 Y0.17030
X0.75560 Y0.17130
X0.75460 Y0.17130
X0.75460 Y0.17230
X0.75360 Y0.17230
X0.75360 Y0.17330
X0.75260 Y0.17330
X0.75260 Y0.17430
X0.75160 Y0.17530
X0.75160 Y0.17630
X0.75060 Y0.17730
X0.75060 Y0.17830
X0.75160 Y0.64330
X0.75160 Y0.64430
X0.75260 Y0.64630
X0.75260 Y0.64730
X0.75360 Y0.64730
X0.75360 Y0.64830
X0.75460 Y0.64830
X0.75460 Y0.64930
X0.75560 Y0.64930
X0.75560 Y0.65030
X0.75660 Y0.65030
X0.75660 Y0.65130
X0.75760 Y0.65130
X0.75760 Y0.65230
X0.75860 Y0.65230
X0.75860 Y0.65330
X0.75960 Y0.65330
X0.75960 Y0.65430
X0.76060 Y0.65430
X0.76060 Y0.65530
X0.76160 Y0.65530
X0.76160 Y0.65630
X0.76260 Y0.65630
X0.76260 Y0.65730
X0.76360 Y0.65730
X0.76360 Y0.65830
X0.76460 Y0.65830
X0.76460 Y0.65930
X0.76560 Y0.65930
X0.76560 Y0.66030
X0.76660 Y0.66030
X0.76660 Y0.66130
X0.76760 Y0.66130
X0.76760 Y0.66230
X0.76860 Y0.66230
X0.76860 Y0.66330
X0.76960 Y0.66330
X0.76960 Y0.66430
X0.77060 Y0.66430
X0.77060 Y0.66530
X0.77160 Y0.66530
X0.77160 Y0.66630
X0.77260 Y0.66630
X0.77260 Y0.66730
X0.77360 Y0.66730
X0.77360 Y0.66830
X0.77460 Y0.66830
X0.77460 Y0.66930
X0.77560 Y0.66930
X0.77560 Y0.67030
X0.77660 Y0.67030
X0.77660 Y0.67130
X0.77760 Y0.67130
X0.77760 Y0.67230
X0.77860 Y0.67230
X0.77860 Y0.67330
X0.77960 Y0.67330
X0.77960 Y0.67430
X0.78060 Y0.67430
X0.78060 Y0.67530
X0.78160 Y0.67530
X0.78160 Y0.67630
X0.78260 Y0.67630
X0.78260 Y0.67730
X0.78360 Y0.67730
X0.78360 Y0.67830
X0.78460 Y0.67830
X0.78460 Y0.67930
X0.78560 Y0.67930
X0.78560 Y0.68030
X0.78660 Y0.68030
X0.78660 Y0.68130
X0.78760 Y0.68130
X0.78760 Y0.68230
X0.78860 Y0.68230
X0.78860 Y0.68330
X0.78960 Y0.68330
X0.78960 Y0.68430
X0.79060 Y0.68430
X0.79060 Y0.68530
X0.79160 Y0.68530
X0.79160 Y0.68630
X0.79260 Y0.68630
X0.79260 Y0.68730
X0.79360 Y0.68730
X0.79360 Y0.68830
X0.79460 Y0.68830
X0.79460 Y0.68930
X0.79560 Y0.68930
X0.79560 Y0.69030
X0.79660 Y0.69030
X0.79660 Y0.69130
X0.79760 Y0.69130
X0.94960 Y0.69230
X0.95060 Y0.69230
X0.95460 Y0.69330
X0.95560 Y0.69330
X0.95960 Y0.69430
X0.96060 Y0.69430
X0.96360 Y0.69530
X0.96460 Y0.69530
X0.96460 Y0.69630
X0.96560 Y0.69630
X0.96660 Y0.69730
X0.96760 Y0.69730
X0.96760 Y0.69830
X0.96860 Y0.69830
X0.96960 Y0.69930
X0.97060 Y0.69930
X0.97060 Y0.70030
X0.97160 Y0.70030
X0.97260 Y0.70130
X0.97360 Y0.70130
X0.97360 Y0.70230
X0.97460 Y0.70230
X0.97560 Y0.70330
X0.97660 Y0.70330
X0.97660 Y0.70430
X0.97760 Y0.70430
X0.97760 Y0.70530
X0.97860 Y0.70530
X0.97860 Y0.70630
X0.97960 Y0.70630
X0.97960 Y0.70730
X0.98060 Y0.70730
X0.98060 Y0.70830
X0.98160 Y0.70830
X0.98160 Y0.70930
X0.98260 Y0.70930
X0.98260 Y0.71030
X0.98360 Y0.71030
X0.98360 Y0.71130
X0.98460 Y0.71130
X0.98460 Y0.71230
X0.98560 Y0.71230
X0.98560 Y0.71330
X0.98660 Y0.71330
X0.98660 Y0.71430
X0.98760 Y0.71430
X0.98760 Y0.71530
X0.98860 Y0.71530
X0.98860 Y0.71630
X0.98960 Y0.71630
X0.98960 Y0.71730
X0.99060 Y0.71730
X0.99060 Y0.71830
X0.99160 Y0.71830
X0.99160 Y0.71930
X0.99260 Y0.71930
X0.99260 Y0.72030
X0.99360 Y0.72030
X0.99360 Y0.72130
X0.99460 Y0.72130
X0.99460 Y0.72230
X0.99560 Y0.72230
X0.99560 Y0.72330
X0.99660 Y0.72330
X0.99660 Y0.72430
X0.99760 Y0.72430
X0.99760 Y0.72530
X0.99860 Y0.72530
X0.99860 Y0.72630
X0.99960 Y0.72630
X0.99960 Y0.72730
X1.00060 Y0.72730
X1.00060 Y0.72830
X1.00160 Y0.72830
X1.00160 Y0.72930
X1.00260 Y0.72930
X1.00260 Y0.73030
X1.00360 Y0.73030
X1.00360 Y0.73130
X1.00460 Y0.73130
X1.00460 Y0.73230
X1.00560 Y0.73230
X1.00560 Y0.73330
X1.00660 Y0.73330
X1.00660 Y0.73430
X1.00760 Y0.73430
X1.00760 Y0.73530
X1.00860 Y0.73630
X1.00860 Y0.73730
X1.00960 Y0.73730
X1.00960 Y0.73830
X1.01060 Y0.73930
X1.01060 Y0.74030
X1.01160 Y0.74030
X1.01160 Y0.74130
X1.01260 Y0.74230
X1.01260 Y0.74330
X1.01360 Y0.74330
X1.01360 Y0.74430
X1.01460 Y0.74530
X1.01460 Y0.74630
X1.01560 Y0.74630
X1.01560 Y0.74730
X1.01660 Y0.74830
X1.01660 Y0.74930
X1.01760 Y0.75330
X1.01760 Y0.75430
X1.01860 Y0.75830
X1.01860 Y0.75930
X1.01960 Y0.76330
X1.01960 Y0.76430
X1.02060 Y0.86930
X1.02060 Y0.87030
X1.02160 Y0.87130
X1.02160 Y0.87230
X1.02260 Y0.87230
X1.02260 Y0.87330
X1.02360 Y0.87530
X1.02360 Y0.87630
X1.02460 Y0.87730
X1.02460 Y0.87830
X1.02560 Y0.87930
X1.02560 Y0.88030
X1.02660 Y0.88030
X1.02660 Y0.88130
X1.02760 Y0.88130
X1.02760 Y0.88230
X1.02860 Y0.88230
X1.02960 Y0.88330
X1.02860 Y0.96930
X1.02860 Y0.97030
X1.02760 Y0.97030
X1.02760 Y0.97130
X1.02660 Y0.97230
X1.02660 Y0.97330
X1.02560 Y0.97330
X1.02560 Y0.97430
X1.02460 Y0.97430
X1.02460 Y0.97530
X1.02360 Y0.97530
X1.02360 Y0.97630
X1.02260 Y0.97630
X1.02260 Y0.97730
X1.02160 Y0.97730
X1.02060 Y0.97830
X1.01960 Y0.97830
X1.01860 Y0.97930
X1.01760 Y0.97930
X1.01760 Y0.98030
X1.01660 Y0.98030
X1.01660 Y0.98130
X1.01560 Y0.98130
X1.01560 Y0.98230
X1.01460 Y0.98230
X1.01260 Y0.98330
X1.01160 Y0.98330
X1.01160 Y0.98430
X1.01060 Y0.98430
X1.00860 Y0.98530
X1.00760 Y0.98530
X1.00760 Y0.98630
X1.00660 Y0.98630
X1.00460 Y0.98730
X1.00360 Y0.98730
X0.94960 Y0.98630
X0.94860 Y0.98630
X0.94460 Y0.98530
X0.94360 Y0.98530
X0.94260 Y0.98430
X0.94160 Y0.98430
X0.94160 Y0.98330
X0.94060 Y0.98330
X0.93960 Y0.98230
X0.93860 Y0.98230
X0.93760 Y0.98130
X0.93660 Y0.98130
X0.93660 Y0.98030
X0.93560 Y0.98030
X0.93560 Y0.97930
X0.93460 Y0.97930
X0.93460 Y0.97830
X0.93360 Y0.97830
X0.93360 Y0.97730
X0.93260 Y0.97730
X0.93260 Y0.97630
X0.93160 Y0.97630
X0.93160 Y0.97530
X0.93060 Y0.97530
X0.93060 Y0.97430
X0.92960 Y0.96630
X0.92960 Y0.96530
X0.93060 Y0.96230
X0.93060 Y0.96130
X0.92960 Y0.95830
X0.92960 Y0.95730
X0.93060 Y0.95630
X0.93060 Y0.95530
X0.93060 Y0.95230
G00 Z0.80000 ( retract )

G00 X1.12960 Y0.55130 ( rapid move to begin. )
G01 Z-0.00800 F6.00000 ( plunge. )
X1.12960 Y0.55130
X1.12960 Y0.55030
X1.12860 Y0.47430
X1.12860 Y0.47330
X1.12960 Y0.46730
X1.12960 Y0.46630
X1.13060 Y0.46430
X1.13060 Y0.46330
X1.13160 Y0.46230
X1.13160 Y0.46130
X1.13260 Y0.46030
X1.13260 Y0.45930
X1.13360 Y0.45830
X1.13360 Y0.45730
X1.13460 Y0.45730
X1.13460 Y0.45630
X1.13560 Y0.45630
X1.13560 Y0.45530
X1.13660 Y0.45530
X1.13660 Y0.45430
X1.13760 Y0.45430
X1.13760 Y0.45330
X1.13860 Y0.45330
X1.13860 Y0.45230
X1.13960 Y0.45230
X1.13960 Y0.45130
X1.14060 Y0.45030
X1.14060 Y0.44930
X1.13960 Y0.25830
X1.13960 Y0.25730
X1.13860 Y0.25630
X1.13860 Y0.25530
X1.13760 Y0.25530
X1.13760 Y0.25430
X1.13660 Y0.25430
X1.13660 Y0.25330
X1.13560 Y0.25330
X1.13560 Y0.25230
X1.13460 Y0.25030
X1.13460 Y0.24930
X1.13360 Y0.24830
X1.13360 Y0.24730
X1.13260 Y0.24630
X1.13260 Y0.24530
X1.13160 Y0.23530
X1.13160 Y0.23430
X1.13060 Y0.23330
X1.13060 Y0.23230
X1.12960 Y0.23230
X1.12960 Y0.23130
X1.13060 Y0.19730
X1.13060 Y0.19630
X1.13160 Y0.19630
X1.13160 Y0.19530
X1.13260 Y0.19430
X1.13260 Y0.19330
X1.13360 Y0.18330
X1.13360 Y0.18230
X1.13460 Y0.18130
X1.13460 Y0.18030
X1.13560 Y0.17830
X1.13560 Y0.17730
X1.13660 Y0.17630
X1.13660 Y0.17530
X1.13760 Y0.17530
X1.13760 Y0.17430
X1.13860 Y0.17430
X1.13860 Y0.17330
X1.13960 Y0.17330
X1.13960 Y0.17230
X1.14060 Y0.17230
X1.14060 Y0.17130
X1.14160 Y0.17130
X1.14160 Y0.17030
X1.14260 Y0.17030
X1.14460 Y0.16930
X1.14560 Y0.16930
X1.14660 Y0.16830
X1.14760 Y0.16830
X1.21360 Y0.16930
X1.21460 Y0.16930
X1.21560 Y0.17030
X1.21660 Y0.17030
X1.21760 Y0.17130
X1.21860 Y0.17130
X1.21960 Y0.17230
X1.22060 Y0.17230
X1.22060 Y0.17330
X1.22160 Y0.17330
X1.22160 Y0.17430
X1.22260 Y0.17430
X1.22260 Y0.17530
X1.22360 Y0.17530
X1.22360 Y0.17630
X1.22460 Y0.17730
X1.22460 Y0.17830
X1.22560 Y0.17930
X1.22560 Y0.18030
X1.22660 Y0.18230
X1.22660 Y0.18330
X1.22560 Y0.24730
X1.22560 Y0.24830
X1.22460 Y0.24930
X1.22460 Y0.25030
X1.22360 Y0.25230
X1.22360 Y0.25330
X1.22260 Y0.25330
X1.22260 Y0.25430
X1.22160 Y0.25430
X1.22160 Y0.25530
X1.22060 Y0.25530
X1.22060 Y0.25630
X1.21960 Y0.25730
X1.21960 Y0.25830
X1.22060 Y0.45030
X1.22060 Y0.45130
X1.22160 Y0.45230
X1.22160 Y0.45330
X1.22260 Y0.45330
X1.22260 Y0.45430
X1.22360 Y0.45430
X1.22360 Y0.45530
X1.22460 Y0.45530
X1.22460 Y0.45630
X1.22560 Y0.45630
X1.22560 Y0.45730
X1.22660 Y0.45730
X1.22660 Y0.45830
X1.22760 Y0.45830
X1.22760 Y0.45930
X1.22860 Y0.46130
X1.22860 Y0.46230
X1.22960 Y0.46330
X1.22960 Y0.46430
X1.23060 Y0.46630
X1.23060 Y0.46730
X1.22960 Y0.56330
X1.22960 Y0.56430
X1.22860 Y0.56630
X1.22860 Y0.56730
X1.22760 Y0.56830
X1.22760 Y0.56930
X1.22660 Y0.57030
X1.22660 Y0.57130
X1.22560 Y0.57130
X1.22560 Y0.57230
X1.22460 Y0.57230
X1.22460 Y0.57330
X1.22360 Y0.57330
X1.22360 Y0.57430
X1.22260 Y0.57430
X1.22260 Y0.57530
X1.22160 Y0.57530
X1.22160 Y0.57630
X1.22060 Y0.57630
X1.21960 Y0.57730
X1.21860 Y0.57730
X1.21760 Y0.57830
X1.21660 Y0.57830
X1.21460 Y0.57930
X1.21360 Y0.57930
X1.14460 Y0.57830
X1.14360 Y0.57830
X1.14260 Y0.57730
X1.14160 Y0.57730
X1.13960 Y0.57630
X1.13860 Y0.57630
X1.13760 Y0.57530
X1.13660 Y0.57530
X1.13660 Y0.57430
X1.13560 Y0.57430
X1.13560 Y0.57330
X1.13460 Y0.57330
X1.13460 Y0.57230
X1.13360 Y0.57230
X1.13360 Y0.57130
X1.13260 Y0.57130
X1.13260 Y0.57030
X1.13160 Y0.56930
X1.13160 Y0.56830
X1.13060 Y0.56730
X1.13060 Y0.56630
X1.12960 Y0.56430
X1.12960 Y0.56330
X1.12860 Y0.56230
X1.12860 Y0.56130
X1.12960 Y0.55530
X1.12960 Y0.55430
X1.12960 Y0.55230
G00 Z0.80000 ( retract )

G00 X0.92960 Y0.55130 ( rapid move to begin. )
G01 Z-0.00800 F6.00000 ( plunge. )
X0.92960 Y0.55130
X0.92960 Y0.55030
X0.92860 Y0.47430
X0.92860 Y0.47330
X0.92960 Y0.46630
X0.92960 Y0.46530
X0.93060 Y0.46430
X0.93060 Y0.46330
X0.93160 Y0.46230
X0.93160 Y0.46130
X0.93260 Y0.46030
X0.93260 Y0.45930
X0.93360 Y0.45830
X0.93360 Y0.45730
X0.93460 Y0.45730
X0.93460 Y0.45630
X0.93560 Y0.45630
X0.93560 Y0.45530
X0.93660 Y0.45530
X0.93660 Y0.45430
X0.93760 Y0.45430
X0.93760 Y0.45330
X0.93860 Y0.45330
X0.93960 Y0.45230
X0.94060 Y0.45230
X0.94160 Y0.45130
X0.94260 Y0.45130
X0.94460 Y0.45030
X0.94560 Y0.45030
X0.95460 Y0.44930
X0.95560 Y0.44930
X0.95560 Y0.44830
X0.95660 Y0.44730
X0.95660 Y0.44630
X0.95760 Y0.44630
X0.95760 Y0.44530
X0.95860 Y0.44130
X0.95860 Y0.44030
X0.95960 Y0.44030
X0.95960 Y0.43930
X0.96060 Y0.43930
X0.96060 Y0.43830
X0.96160 Y0.43830
X0.96160 Y0.43730
X0.96260 Y0.43730
X0.96260 Y0.43630
X0.96360 Y0.43630
X0.96360 Y0.43530
X0.96460 Y0.43530
X0.96460 Y0.43430
X0.96560 Y0.43430
X0.96560 Y0.43330
X0.96660 Y0.43330
X0.96660 Y0.43230
X0.96760 Y0.43230
X0.96760 Y0.43130
X0.96860 Y0.43130
X0.97360 Y0.43230
X0.97460 Y0.43230
X0.98560 Y0.43130
X0.98660 Y0.43130
X0.99160 Y0.43230
X0.99260 Y0.43230
X0.99260 Y0.43330
X0.99360 Y0.43330
X0.99360 Y0.43430
X0.99460 Y0.43430
X0.99460 Y0.43530
X0.99560 Y0.43530
X0.99560 Y0.43630
X0.99660 Y0.43630
X0.99660 Y0.43730
X0.99760 Y0.43730
X0.99760 Y0.43830
X0.99860 Y0.43830
X0.99860 Y0.43930
X0.99960 Y0.43930
X0.99960 Y0.44030
X1.00060 Y0.44030
X1.00060 Y0.44130
X1.00160 Y0.44130
X1.00160 Y0.44230
X1.00260 Y0.44230
X1.00260 Y0.44330
X1.00360 Y0.44630
X1.00360 Y0.44730
X1.00460 Y0.44830
X1.00460 Y0.44930
X1.00560 Y0.44930
X1.00560 Y0.45030
X1.00660 Y0.45030
X1.01560 Y0.45130
X1.01660 Y0.45130
X1.01760 Y0.45230
X1.01860 Y0.45230
X1.02060 Y0.45330
X1.02160 Y0.45330
X1.02260 Y0.45430
X1.02360 Y0.45430
X1.02360 Y0.45530
X1.02460 Y0.45530
X1.02460 Y0.45630
X1.02560 Y0.45630
X1.02560 Y0.45730
X1.02660 Y0.45730
X1.02660 Y0.45830
X1.02760 Y0.45830
X1.02760 Y0.45930
X1.02860 Y0.46130
X1.02860 Y0.46230
X1.02960 Y0.46330
X1.02960 Y0.46430
X1.03060 Y0.46630
X1.03060 Y0.46730
X1.03160 Y0.46730
X1.03160 Y0.46830
X1.03260 Y0.46930
X1.03260 Y0.47030
X1.03360 Y0.47030
X1.03960 Y0.46930
X1.04060 Y0.46930
X1.04060 Y0.46830
X1.04160 Y0.46830
X1.04160 Y0.46730
X1.04260 Y0.46730
X1.04260 Y0.46630
X1.04360 Y0.46630
X1.04360 Y0.46530
X1.04460 Y0.46530
X1.04460 Y0.46430
X1.04560 Y0.46430
X1.04560 Y0.46330
X1.04660 Y0.46330
X1.04660 Y0.46230
X1.04760 Y0.46230
X1.04760 Y0.46130
X1.04860 Y0.46130
X1.04860 Y0.46030
X1.04960 Y0.46030
X1.04960 Y0.45930
X1.05060 Y0.45930
X1.05060 Y0.45830
X1.05160 Y0.45830
X1.05160 Y0.45730
X1.05260 Y0.45730
X1.05460 Y0.45630
X1.05560 Y0.45630
X1.05660 Y0.45530
X1.05760 Y0.45530
X1.05860 Y0.45430
X1.05960 Y0.45330
X1.05960 Y0.45230
X1.06060 Y0.45130
X1.06060 Y0.45030
X1.05960 Y0.44930
X1.05960 Y0.44830
X1.05860 Y0.44830
X1.05860 Y0.44730
X1.05760 Y0.44630
X1.05760 Y0.44530
X1.05860 Y0.44130
X1.05860 Y0.44030
X1.05960 Y0.44030
X1.05960 Y0.43930
X1.06060 Y0.43930
X1.06060 Y0.43830
X1.06160 Y0.43830
X1.06160 Y0.43730
X1.06260 Y0.43730
X1.06260 Y0.43630
X1.06360 Y0.43630
X1.06360 Y0.43530
X1.06460 Y0.43530
X1.06460 Y0.43430
X1.06560 Y0.43430
X1.06560 Y0.43330
X1.06660 Y0.43330
X1.06660 Y0.43230
X1.06760 Y0.43230
X1.06760 Y0.43130
X1.06860 Y0.43130
X1.07360 Y0.43230
X1.07460 Y0.43230
X1.08560 Y0.43130
X1.08660 Y0.43130
X1.09160 Y0.43230
X1.09260 Y0.43230
X1.09260 Y0.43330
X1.09360 Y0.43330
X1.09360 Y0.43430
X1.09460 Y0.43430
X1.09460 Y0.43530
X1.09560 Y0.43530
X1.09560 Y0.43630
X1.09660 Y0.43630
X1.09660 Y0.43730
X1.09760 Y0.43730
X1.09760 Y0.43830
X1.09860 Y0.43830
X1.09860 Y0.43930
X1.09960 Y0.43930
X1.09960 Y0.44030
X1.10060 Y0.44030
X1.10060 Y0.44130
X1.10160 Y0.44130
X1.10160 Y0.44230
X1.10260 Y0.44230
X1.10260 Y0.44330
X1.10160 Y0.44530
X1.10160 Y0.44630
X1.10060 Y0.44730
X1.10060 Y0.44830
X1.09960 Y0.44930
X1.09960 Y0.45030
X1.10060 Y0.45130
X1.10060 Y0.45230
X1.10160 Y0.45330
X1.10160 Y0.45430
X1.10260 Y0.45530
X1.10360 Y0.45630
X1.10460 Y0.45630
X1.10560 Y0.45730
X1.10660 Y0.45730
X1.10760 Y0.45830
X1.10860 Y0.45830
X1.10860 Y0.45930
X1.10960 Y0.45930
X1.10960 Y0.46030
X1.11060 Y0.46030
X1.11060 Y0.46130
X1.11160 Y0.46130
X1.11160 Y0.46230
X1.11260 Y0.46230
X1.11260 Y0.46330
X1.11360 Y0.46330
X1.11360 Y0.46430
X1.11460 Y0.46430
X1.11460 Y0.46530
X1.11560 Y0.46530
X1.11560 Y0.46630
X1.11660 Y0.46630
X1.11660 Y0.46730
X1.11760 Y0.46730
X1.11760 Y0.46830
X1.11860 Y0.46830
X1.11860 Y0.46930
X1.11960 Y0.46930
X1.11960 Y0.47030
X1.12060 Y0.47030
X1.12860 Y0.47130
X1.12960 Y0.47430
X1.12960 Y0.47530
X1.12860 Y0.55530
X1.12860 Y0.55630
X1.12760 Y0.55930
X1.12660 Y0.55830
X1.12560 Y0.55830
X1.12060 Y0.55930
X1.11960 Y0.55930
X1.11960 Y0.56030
X1.11860 Y0.56030
X1.11860 Y0.56130
X1.11760 Y0.56130
X1.11760 Y0.56230
X1.11660 Y0.56230
X1.11660 Y0.56330
X1.11560 Y0.56330
X1.11560 Y0.56430
X1.11460 Y0.56430
X1.11460 Y0.56530
X1.11360 Y0.56530
X1.11360 Y0.56630
X1.11260 Y0.56630
X1.11260 Y0.56730
X1.11160 Y0.56730
X1.11160 Y0.56830
X1.11060 Y0.56830
X1.11060 Y0.56930
X1.10960 Y0.56930
X1.10960 Y0.57030
X1.10860 Y0.57030
X1.10860 Y0.57130
X1.10760 Y0.57130
X1.10760 Y0.57230
X1.10660 Y0.57230
X1.10560 Y0.57330
X1.10460 Y0.57330
X1.10260 Y0.57430
X1.10160 Y0.57430
X1.10060 Y0.57530
X1.09960 Y0.57530
X1.09760 Y0.57630
X1.09660 Y0.57630
X1.09560 Y0.57730
X1.09460 Y0.57730
X1.09360 Y0.57830
X1.09260 Y0.57830
X1.09060 Y0.57930
X1.08960 Y0.57930
X1.06860 Y0.57830
X1.06760 Y0.57830
X1.06660 Y0.57730
X1.06560 Y0.57730
X1.06460 Y0.57630
X1.06360 Y0.57630
X1.06160 Y0.57530
X1.06060 Y0.57530
X1.05960 Y0.57430
X1.05860 Y0.57430
X1.05660 Y0.57330
X1.05560 Y0.57330
X1.05460 Y0.57230
X1.05360 Y0.57230
X1.05260 Y0.57130
X1.05160 Y0.57130
X1.05160 Y0.57030
X1.05060 Y0.57030
X1.05060 Y0.56930
X1.04960 Y0.56930
X1.04960 Y0.56830
X1.04860 Y0.56830
X1.04860 Y0.56730
X1.04760 Y0.56730
X1.04760 Y0.56630
X1.04660 Y0.56630
X1.04660 Y0.56530
X1.04560 Y0.56530
X1.04560 Y0.56430
X1.04460 Y0.56430
X1.04460 Y0.56330
X1.04360 Y0.56330
X1.04360 Y0.56230
X1.04260 Y0.56230
X1.04260 Y0.56130
X1.04160 Y0.56130
X1.04160 Y0.56030
X1.04060 Y0.56030
X1.04060 Y0.55930
X1.03960 Y0.55930
X1.03860 Y0.55830
X1.03760 Y0.55830
X1.03260 Y0.55930
X1.03160 Y0.56030
X1.03160 Y0.56130
X1.03060 Y0.56130
X1.03060 Y0.56230
X1.02960 Y0.56330
X1.02960 Y0.56430
X1.02860 Y0.56630
X1.02860 Y0.56730
X1.02760 Y0.56830
X1.02760 Y0.56930
X1.02660 Y0.57030
X1.02660 Y0.57130
X1.02560 Y0.57130
X1.02560 Y0.57230
X1.02460 Y0.57230
X1.02460 Y0.57330
X1.02360 Y0.57330
X1.02360 Y0.57430
X1.02260 Y0.57430
X1.02260 Y0.57530
X1.02160 Y0.57530
X1.02160 Y0.57630
X1.02060 Y0.57630
X1.01960 Y0.57730
X1.01860 Y0.57730
X1.01760 Y0.57830
X1.01660 Y0.57830
X1.01460 Y0.57930
X1.01360 Y0.57930
X0.94460 Y0.57830
X0.94360 Y0.57830
X0.94260 Y0.57730
X0.94160 Y0.57730
X0.93960 Y0.57630
X0.93860 Y0.57630
X0.93760 Y0.57530
X0.93660 Y0.57530
X0.93660 Y0.57430
X0.93560 Y0.57430
X0.93560 Y0.57330
X0.93460 Y0.57330
X0.93460 Y0.57230
X0.93360 Y0.57230
X0.93360 Y0.57130
X0.93260 Y0.57130
X0.93260 Y0.57030
X0.93160 Y0.56930
X0.93160 Y0.56830
X0.93060 Y0.56730
X0.93060 Y0.56630
X0.92960 Y0.56430
X0.92960 Y0.56330
X0.92860 Y0.56230
X0.92860 Y0.56130
X0.92960 Y0.55530
X0.92960 Y0.55430
X0.92960 Y0.55230
G00 Z0.80000 ( retract )

G00 X0.83560 Y0.55130 ( rapid move to begin. )
G01 Z-0.00800 F6.00000 ( plunge. )
X0.83560 Y0.55130
X0.83560 Y0.55030
X0.83460 Y0.55030
X0.83460 Y0.54930
X0.83360 Y0.54830
X0.83360 Y0.54730
X0.83260 Y0.54530
X0.83260 Y0.54430
X0.83160 Y0.54330
X0.83160 Y0.54230
X0.83060 Y0.54130
X0.83060 Y0.54030
X0.83160 Y0.48830
X0.83160 Y0.48730
X0.83260 Y0.48630
X0.83260 Y0.48530
X0.83360 Y0.48330
X0.83360 Y0.48230
X0.83460 Y0.48130
X0.83460 Y0.48030
X0.83560 Y0.47930
X0.83560 Y0.47830
X0.83660 Y0.47630
X0.83660 Y0.47530
X0.83760 Y0.47430
X0.83760 Y0.47330
X0.83860 Y0.47130
X0.83860 Y0.47030
X0.83960 Y0.47030
X0.83960 Y0.46930
X0.84060 Y0.46830
X0.84060 Y0.46730
X0.83960 Y0.44830
X0.83960 Y0.44730
X0.83860 Y0.44630
X0.83860 Y0.44530
X0.83760 Y0.44530
X0.83760 Y0.44430
X0.83660 Y0.44430
X0.83660 Y0.44330
X0.83560 Y0.44330
X0.83560 Y0.44230
X0.83460 Y0.44030
X0.83460 Y0.43930
X0.83360 Y0.43830
X0.83360 Y0.43730
X0.83260 Y0.43630
X0.83260 Y0.43530
X0.83360 Y0.37330
X0.83360 Y0.37230
X0.83460 Y0.37130
X0.83460 Y0.37030
X0.83560 Y0.36830
X0.83560 Y0.36730
X0.83660 Y0.36630
X0.83660 Y0.36530
X0.83760 Y0.36530
X0.83760 Y0.36430
X0.83860 Y0.36430
X0.83860 Y0.36330
X0.83960 Y0.36330
X0.83960 Y0.36230
X0.84060 Y0.36230
X0.84060 Y0.36130
X0.84160 Y0.36130
X0.84160 Y0.36030
X0.84260 Y0.36030
X0.84460 Y0.35930
X0.84560 Y0.35930
X0.84660 Y0.35830
X0.84760 Y0.35830
X0.86060 Y0.35730
X0.86160 Y0.35730
X0.86360 Y0.35630
X0.86460 Y0.35530
X0.86460 Y0.35430
X0.86560 Y0.35430
X0.86560 Y0.35330
X0.86460 Y0.35030
X0.86460 Y0.34930
X0.86360 Y0.34930
X0.86360 Y0.34830
X0.86260 Y0.34730
X0.86160 Y0.34630
X0.86060 Y0.34630
X0.85860 Y0.34530
X0.85760 Y0.34530
X0.85760 Y0.34430
X0.85860 Y0.34130
X0.85860 Y0.34030
X0.85960 Y0.34030
X0.85960 Y0.33930
X0.86060 Y0.33930
X0.86060 Y0.33830
X0.86160 Y0.33830
X0.86160 Y0.33730
X0.86260 Y0.33730
X0.86260 Y0.33630
X0.86360 Y0.33630
X0.86360 Y0.33530
X0.86460 Y0.33530
X0.86460 Y0.33430
X0.86560 Y0.33430
X0.86560 Y0.33330
X0.86660 Y0.33330
X0.86660 Y0.33230
X0.86760 Y0.33230
X0.86760 Y0.33130
X0.86860 Y0.33130
X0.87360 Y0.33230
X0.87460 Y0.33230
X0.88160 Y0.33330
X0.88260 Y0.33330
X0.88260 Y0.33430
X0.88360 Y0.33430
X0.88360 Y0.33530
X0.88460 Y0.33530
X0.88460 Y0.33630
X0.88560 Y0.33630
X0.88560 Y0.33730
X0.88660 Y0.33930
X0.88660 Y0.34030
X0.88760 Y0.34030
X0.88760 Y0.34130
X0.88860 Y0.34130
X0.88960 Y0.34230
X0.89060 Y0.34230
X0.89060 Y0.34330
X0.89160 Y0.34330
X0.89160 Y0.34430
X0.89260 Y0.34430
X0.89360 Y0.34530
X0.89460 Y0.34530
X0.89460 Y0.34630
X0.89560 Y0.34630
X0.89760 Y0.34730
X0.89660 Y0.34830
X0.89660 Y0.34930
X0.89560 Y0.35030
X0.89560 Y0.35130
X0.89660 Y0.35430
X0.89660 Y0.35530
X0.89760 Y0.35630
X0.89760 Y0.35730
X0.89860 Y0.35730
X0.90060 Y0.35830
X0.90160 Y0.35830
X0.91360 Y0.35930
X0.91460 Y0.35930
X0.91560 Y0.36030
X0.91660 Y0.36030
X0.91760 Y0.36130
X0.91860 Y0.36130
X0.91960 Y0.36230
X0.92060 Y0.36230
X0.92060 Y0.36330
X0.92160 Y0.36330
X0.92160 Y0.36430
X0.92260 Y0.36430
X0.92260 Y0.36530
X0.92360 Y0.36530
X0.92360 Y0.36630
X0.92460 Y0.36730
X0.92460 Y0.36830
X0.92560 Y0.36930
X0.92560 Y0.37030
X0.92660 Y0.37230
X0.92660 Y0.37330
X0.92760 Y0.38630
X0.92760 Y0.38730
X0.92860 Y0.38730
X0.92860 Y0.38830
X0.92960 Y0.38930
X0.92960 Y0.39030
X0.93060 Y0.39030
X0.93560 Y0.38930
X0.93660 Y0.38930
X0.93760 Y0.39030
X0.93860 Y0.39030
X0.93860 Y0.39130
X0.93960 Y0.39330
X0.93960 Y0.39430
X0.94060 Y0.39630
X0.94060 Y0.39730
X0.94160 Y0.39930
X0.94160 Y0.40030
X0.94260 Y0.40030
X0.94260 Y0.40130
X0.94360 Y0.40130
X0.94360 Y0.40230
X0.94460 Y0.40330
X0.94460 Y0.40430
X0.94560 Y0.40430
X0.94560 Y0.40530
X0.94660 Y0.40530
X0.94660 Y0.40630
X0.94760 Y0.40630
X0.94760 Y0.40730
X0.94860 Y0.40730
X0.94860 Y0.40830
X0.94960 Y0.40830
X0.94960 Y0.40930
X0.95060 Y0.40930
X0.95060 Y0.41030
X0.95160 Y0.41030
X0.95160 Y0.41130
X0.95260 Y0.41130
X0.95260 Y0.41230
X0.95360 Y0.41230
X0.95360 Y0.41330
X0.95260 Y0.41630
X0.95260 Y0.41730
X0.95160 Y0.41730
X0.95160 Y0.41830
X0.95060 Y0.41830
X0.95060 Y0.41930
X0.94960 Y0.41930
X0.94960 Y0.42030
X0.94860 Y0.42030
X0.94860 Y0.42130
X0.94760 Y0.42130
X0.94760 Y0.42230
X0.94660 Y0.42230
X0.94660 Y0.42330
X0.94560 Y0.42330
X0.94560 Y0.42430
X0.94460 Y0.42430
X0.94460 Y0.42530
X0.94360 Y0.42530
X0.94360 Y0.42630
X0.94260 Y0.42630
X0.94260 Y0.42730
X0.94160 Y0.42730
X0.93960 Y0.42630
X0.93860 Y0.42630
X0.93860 Y0.42530
X0.93760 Y0.42530
X0.93760 Y0.42430
X0.93660 Y0.42330
X0.93660 Y0.42230
X0.93560 Y0.42130
X0.93560 Y0.42030
X0.93460 Y0.42030
X0.92960 Y0.42130
X0.92860 Y0.42130
X0.92860 Y0.42230
X0.92760 Y0.42330
X0.92760 Y0.42430
X0.92660 Y0.42430
X0.92660 Y0.42530
X0.92560 Y0.43730
X0.92560 Y0.43830
X0.92460 Y0.43930
X0.92460 Y0.44030
X0.92360 Y0.44230
X0.92360 Y0.44330
X0.92260 Y0.44330
X0.92260 Y0.44430
X0.92160 Y0.44430
X0.92160 Y0.44530
X0.92060 Y0.44530
X0.92060 Y0.44630
X0.91960 Y0.44730
X0.91960 Y0.44830
X0.92060 Y0.46530
X0.92060 Y0.46630
X0.92160 Y0.46730
X0.92160 Y0.46830
X0.92260 Y0.46830
X0.92860 Y0.46930
X0.92960 Y0.47430
X0.92960 Y0.47530
X0.92860 Y0.55530
X0.92860 Y0.55630
X0.92760 Y0.55930
X0.92660 Y0.55830
X0.92560 Y0.55830
X0.92060 Y0.55930
X0.91960 Y0.55930
X0.91960 Y0.56030
X0.91860 Y0.56030
X0.91860 Y0.56130
X0.91760 Y0.56130
X0.91760 Y0.56230
X0.91660 Y0.56230
X0.91660 Y0.56330
X0.91560 Y0.56330
X0.91560 Y0.56430
X0.91460 Y0.56430
X0.91460 Y0.56530
X0.91360 Y0.56530
X0.91360 Y0.56630
X0.91260 Y0.56630
X0.91260 Y0.56730
X0.91160 Y0.56730
X0.91160 Y0.56830
X0.91060 Y0.56830
X0.91060 Y0.56930
X0.90960 Y0.56930
X0.90960 Y0.57030
X0.90860 Y0.57030
X0.90860 Y0.57130
X0.90760 Y0.57130
X0.90760 Y0.57230
X0.90660 Y0.57230
X0.90560 Y0.57330
X0.90460 Y0.57330
X0.90260 Y0.57430
X0.90160 Y0.57430
X0.90060 Y0.57530
X0.89960 Y0.57530
X0.89760 Y0.57630
X0.89660 Y0.57630
X0.89560 Y0.57730
X0.89460 Y0.57730
X0.89360 Y0.57830
X0.89260 Y0.57830
X0.89060 Y0.57930
X0.88960 Y0.57930
X0.86860 Y0.57830
X0.86760 Y0.57830
X0.86660 Y0.57730
X0.86560 Y0.57730
X0.86460 Y0.57630
X0.86360 Y0.57630
X0.86160 Y0.57530
X0.86060 Y0.57530
X0.85960 Y0.57430
X0.85860 Y0.57430
X0.85660 Y0.57330
X0.85560 Y0.57330
X0.85460 Y0.57230
X0.85360 Y0.57230
X0.85260 Y0.57130
X0.85160 Y0.57130
X0.85160 Y0.57030
X0.85060 Y0.57030
X0.85060 Y0.56930
X0.84960 Y0.56930
X0.84960 Y0.56830
X0.84860 Y0.56830
X0.84860 Y0.56730
X0.84760 Y0.56730
X0.84760 Y0.56630
X0.84660 Y0.56630
X0.84660 Y0.56530
X0.84560 Y0.56530
X0.84560 Y0.56430
X0.84460 Y0.56430
X0.84460 Y0.56330
X0.84360 Y0.56330
X0.84360 Y0.56230
X0.84260 Y0.56230
X0.84260 Y0.56130
X0.84160 Y0.56130
X0.84160 Y0.56030
X0.84060 Y0.56030
X0.84060 Y0.55930
X0.83960 Y0.55930
X0.83960 Y0.55830
X0.83860 Y0.55830
X0.83860 Y0.55730
X0.83760 Y0.55730
X0.83760 Y0.55630
X0.83660 Y0.55530
X0.83660 Y0.55430
X0.83560 Y0.55330
X0.83560 Y0.55230

G00 Z0.25000 ( retract )

M9 ( Coolant off. )
M2 ( Program end. )

